;FLAVOR:Marlin
;TIME:1331
;Filament used: 0.878554m
;Layer height: 0.2
;MINX:70.6
;MINY:96.638
;MINZ:0.2
;MAXX:179.4
;MAXY:113.362
;MAXZ:6.4
;Generated with Cura_SteamEngine master
M82 ;absolute extrusion mode
G21 ; set units to millimeters
G90 ; use absolute positioning
M82 ; absolute extrusion mode
M104 S200 ; set extruder temp
M140 S60 ; set bed temp
M190 S60 ; wait for bed temp
M109 S200 ; wait for extruder temp
G28 W ; home all without mesh bed level
G80 ; mesh bed leveling
G92 E0.0 ; reset extruder distance position
;okay next (not selected)
G1 Y-3.0 F1000.0 ; go outside print area
;okay next (not selected)
G1 X60.0 E9.0 F1000.0 ; intro line
;okay next (not selected)
G1 X100.0 E21.5 F1000.0 ; intro line
G92 E0.0 ; reset extruder distance position
G92 E0
G92 E0
;okay next (not selected)
G1 F2100 E-0.8
;LAYER_COUNT:32
;LAYER:0
M107
G0 F3600 X72 Y97.406 Z0.2
;TYPE:SKIRT
;okay next (not selected)
G1 F2100 E0
;okay next (not selected)
G1 F1200 X72.446 Y97.109 E0.01515
;okay next (not selected)
G1 X72.932 Y96.881 E0.03033
;okay next (not selected)
G1 X73.446 Y96.729 E0.04548
;okay next (not selected)
G1 X74.109 Y96.648 E0.06436
;okay next (not selected)
G1 X74.53 Y96.638 E0.07627
;okay next (not selected)
G1 X105.299 Y96.638 E0.94614
;okay next (not selected)
G1 X106.009 Y96.649 E0.96622
;okay next (not selected)
G1 X106.507 Y96.692 E0.98035
;okay next (not selected)
G1 X107.122 Y96.788 E0.99794
;okay next (not selected)
G1 X108.728 Y97.064 E1.04401
;okay next (not selected)
G1 X111.408 Y97.445 E1.12054
;okay next (not selected)
G1 X114.125 Y97.753 E1.19785
;okay next (not selected)
G1 X116.854 Y97.986 E1.27528
;okay next (not selected)
G1 X119.548 Y98.137 E1.35156
;defect next
G0 X123.676 Y98.225
;okay next (not selected)
G1 X126.309 Y98.225 E1.54273
;okay next (not selected)
G1 X129.089 Y98.186 E1.62133
;okay next (not selected)
G1 X131.818 Y98.07 E1.69855
;okay next (not selected)
G1 X134.547 Y97.876 E1.7759
;okay next (not selected)
G1 X137.224 Y97.611 E1.85195
;okay next (not selected)
G1 X139.955 Y97.262 E1.92979
;okay next (not selected)
G1 X142.867 Y96.788 E2.0132
;okay next (not selected)
G1 X143.503 Y96.69 E2.03139
;okay next (not selected)
G1 X144.078 Y96.645 E2.04769
;okay next (not selected)
G1 X144.642 Y96.638 E2.06364
;okay next (not selected)
G1 X175.145 Y96.638 E2.92599
;okay next (not selected)
G1 X175.843 Y96.648 E2.94573
;okay next (not selected)
G1 X176.377 Y96.696 E2.96089
;okay next (not selected)
G1 X176.898 Y96.822 E2.97604
;okay next (not selected)
G1 X177.395 Y97.025 E2.99122
;okay next (not selected)
G1 X177.856 Y97.299 E3.00638
;okay next (not selected)
G1 X178.271 Y97.638 E3.02153
;okay next (not selected)
G1 X178.631 Y98.036 E3.0367
;okay next (not selected)
G1 X178.928 Y98.482 E3.05185
;defect next
G0 X179.156 Y98.968
;okay next (not selected)
G1 X179.308 Y99.482 E3.08218
;okay next (not selected)
G1 X179.39 Y100.147 E3.10112
;okay next (not selected)
G1 X179.4 Y100.568 E3.11303
;okay next (not selected)
G1 X179.4 Y109.071 E3.35342
;okay next (not selected)
G1 X179.391 Y109.798 E3.37397
;okay next (not selected)
G1 X179.344 Y110.332 E3.38913
;okay next (not selected)
G1 X179.219 Y110.853 E3.40427
;okay next (not selected)
G1 X179.017 Y111.35 E3.41944
;okay next (not selected)
G1 X178.744 Y111.812 E3.43461
;okay next (not selected)
G1 X178.406 Y112.228 E3.44977
;okay next (not selected)
G1 X178.009 Y112.589 E3.46494
;okay next (not selected)
G1 X177.563 Y112.887 E3.4801
;okay next (not selected)
G1 X177.078 Y113.115 E3.49525
;okay next (not selected)
G1 X176.564 Y113.269 E3.51042
;okay next (not selected)
G1 X175.892 Y113.352 E3.52956
;okay next (not selected)
G1 X175.47 Y113.362 E3.5415
;okay next (not selected)
G1 X144.701 Y113.362 E4.41137
;okay next (not selected)
G1 X143.991 Y113.351 E4.43145
;okay next (not selected)
G1 X143.493 Y113.308 E4.44558
;defect next
G0 X142.878 Y113.212
;okay next (not selected)
G1 X141.272 Y112.936 E4.50924
;okay next (not selected)
G1 X138.592 Y112.555 E4.58577
;okay next (not selected)
G1 X135.875 Y112.247 E4.66308
;okay next (not selected)
G1 X133.146 Y112.014 E4.74051
;okay next (not selected)
G1 X130.452 Y111.863 E4.81679
;okay next (not selected)
G1 X126.324 Y111.775 E4.93352
;okay next (not selected)
G1 X123.691 Y111.775 E5.00796
;okay next (not selected)
G1 X120.911 Y111.814 E5.08656
;okay next (not selected)
G1 X118.182 Y111.93 E5.16378
;okay next (not selected)
G1 X115.453 Y112.124 E5.24113
;okay next (not selected)
G1 X112.776 Y112.389 E5.31718
;okay next (not selected)
G1 X110.045 Y112.738 E5.39502
;okay next (not selected)
G1 X107.133 Y113.212 E5.47843
;okay next (not selected)
G1 X106.497 Y113.31 E5.49662
;okay next (not selected)
G1 X105.922 Y113.355 E5.51292
;okay next (not selected)
G1 X105.358 Y113.362 E5.52887
;okay next (not selected)
G1 X74.855 Y113.362 E6.39122
;okay next (not selected)
G1 X74.157 Y113.352 E6.41096
;okay next (not selected)
G1 X73.623 Y113.304 E6.42612
;defect next
G0 X73.102 Y113.178
;okay next (not selected)
G1 X72.605 Y112.975 E6.45645
;okay next (not selected)
G1 X72.144 Y112.701 E6.47161
;okay next (not selected)
G1 X71.729 Y112.362 E6.48676
;okay next (not selected)
G1 X71.369 Y111.964 E6.50193
;okay next (not selected)
G1 X71.072 Y111.518 E6.51708
;okay next (not selected)
G1 X70.844 Y111.032 E6.53226
;okay next (not selected)
G1 X70.692 Y110.518 E6.54741
;okay next (not selected)
G1 X70.61 Y109.85 E6.56644
;okay next (not selected)
G1 X70.6 Y109.42 E6.5786
;okay next (not selected)
G1 X70.6 Y100.858 E6.82065
;okay next (not selected)
G1 X70.61 Y100.193 E6.83946
;okay next (not selected)
G1 X70.658 Y99.659 E6.85461
;okay next (not selected)
G1 X70.785 Y99.138 E6.86977
;okay next (not selected)
G1 X70.988 Y98.641 E6.88495
;okay next (not selected)
G1 X71.262 Y98.18 E6.90011
;okay next (not selected)
G1 X71.602 Y97.765 E6.91528
;okay next (not selected)
G1 X72 Y97.406 E6.93043
G0 F3600 X72.385 Y97.618
;okay next (not selected)
G1 F1200 X72.822 Y97.364 E6.94472
;okay next (not selected)
G1 X73.293 Y97.181 E6.95901
;defect next
G0 X73.788 Y97.075
;okay next (not selected)
G1 X74.44 Y97.039 E6.99178
;okay next (not selected)
G1 X105.293 Y97.038 E7.86403
;okay next (not selected)
G1 X106.003 Y97.049 E7.8841
;okay next (not selected)
G1 X106.445 Y97.087 E7.89665
;okay next (not selected)
G1 X107.054 Y97.182 E7.91407
;okay next (not selected)
G1 X108.67 Y97.46 E7.96043
;okay next (not selected)
G1 X111.344 Y97.84 E8.03678
;okay next (not selected)
G1 X114.117 Y98.154 E8.11568
;okay next (not selected)
G1 X116.797 Y98.383 E8.19172
;okay next (not selected)
G1 X119.547 Y98.537 E8.26959
;okay next (not selected)
G1 X123.667 Y98.625 E8.3861
;okay next (not selected)
G1 X126.315 Y98.625 E8.46096
;okay next (not selected)
G1 X129.112 Y98.585 E8.54004
;okay next (not selected)
G1 X131.829 Y98.47 E8.61692
;okay next (not selected)
G1 X134.575 Y98.275 E8.69475
;okay next (not selected)
G1 X137.281 Y98.007 E8.77162
;okay next (not selected)
G1 X139.98 Y97.662 E8.84855
;okay next (not selected)
G1 X142.928 Y97.183 E8.93299
;okay next (not selected)
G1 X143.564 Y97.085 E8.95118
;defect next
G0 X144.083 Y97.045
;okay next (not selected)
G1 X144.647 Y97.038 E8.98184
;okay next (not selected)
G1 X175.139 Y97.038 E9.84388
;okay next (not selected)
G1 X175.837 Y97.048 E9.86362
;okay next (not selected)
G1 X176.34 Y97.095 E9.8779
;okay next (not selected)
G1 X176.83 Y97.221 E9.8922
;okay next (not selected)
G1 X177.294 Y97.423 E9.90651
;okay next (not selected)
G1 X177.72 Y97.695 E9.9208
;okay next (not selected)
G1 X178.098 Y98.03 E9.93508
;okay next (not selected)
G1 X178.418 Y98.421 E9.94936
;okay next (not selected)
G1 X178.673 Y98.858 E9.96367
;okay next (not selected)
G1 X178.856 Y99.329 E9.97795
;okay next (not selected)
G1 X178.963 Y99.823 E9.99224
;okay next (not selected)
G1 X178.999 Y100.478 E10.01079
;okay next (not selected)
G1 X179 Y109.066 E10.25358
;okay next (not selected)
G1 X178.991 Y109.793 E10.27414
;okay next (not selected)
G1 X178.945 Y110.296 E10.28842
;okay next (not selected)
G1 X178.82 Y110.786 E10.30271
;okay next (not selected)
G1 X178.619 Y111.25 E10.31701
;okay next (not selected)
G1 X178.348 Y111.677 E10.33131
;defect next
G0 X178.013 Y112.056
;okay next (not selected)
G1 X177.623 Y112.377 E10.35989
;okay next (not selected)
G1 X177.187 Y112.633 E10.37418
;okay next (not selected)
G1 X176.716 Y112.816 E10.38847
;okay next (not selected)
G1 X176.222 Y112.924 E10.40276
;okay next (not selected)
G1 X175.56 Y112.961 E10.42151
;okay next (not selected)
G1 X144.707 Y112.962 E11.29375
;okay next (not selected)
G1 X143.997 Y112.951 E11.31383
;okay next (not selected)
G1 X143.555 Y112.913 E11.32637
;okay next (not selected)
G1 X142.946 Y112.818 E11.3438
;okay next (not selected)
G1 X141.33 Y112.54 E11.39015
;okay next (not selected)
G1 X138.656 Y112.16 E11.46651
;okay next (not selected)
G1 X135.883 Y111.846 E11.54541
;okay next (not selected)
G1 X133.203 Y111.617 E11.62145
;okay next (not selected)
G1 X130.453 Y111.463 E11.69932
;okay next (not selected)
G1 X126.333 Y111.375 E11.81582
;okay next (not selected)
G1 X123.685 Y111.375 E11.89068
;okay next (not selected)
G1 X120.888 Y111.415 E11.96977
;okay next (not selected)
G1 X118.171 Y111.53 E12.04665
;okay next (not selected)
G1 X115.425 Y111.725 E12.12447
;defect next
G0 X112.719 Y111.993
;okay next (not selected)
G1 X110.02 Y112.338 E12.27828
;okay next (not selected)
G1 X107.072 Y112.817 E12.36271
;okay next (not selected)
G1 X106.436 Y112.915 E12.3809
;okay next (not selected)
G1 X105.917 Y112.955 E12.39562
;okay next (not selected)
G1 X105.353 Y112.962 E12.41157
;okay next (not selected)
G1 X74.861 Y112.962 E13.27361
;okay next (not selected)
G1 X74.163 Y112.952 E13.29334
;okay next (not selected)
G1 X73.66 Y112.905 E13.30763
;okay next (not selected)
G1 X73.17 Y112.779 E13.32193
;okay next (not selected)
G1 X72.706 Y112.577 E13.33624
;okay next (not selected)
G1 X72.28 Y112.305 E13.35053
;okay next (not selected)
G1 X71.902 Y111.97 E13.36481
;okay next (not selected)
G1 X71.582 Y111.579 E13.37909
;okay next (not selected)
G1 X71.327 Y111.142 E13.39339
;okay next (not selected)
G1 X71.144 Y110.671 E13.40768
;okay next (not selected)
G1 X71.037 Y110.177 E13.42197
;okay next (not selected)
G1 X71.001 Y109.507 E13.44094
;okay next (not selected)
G1 X71 Y100.864 E13.68529
;okay next (not selected)
G1 X71.01 Y100.199 E13.70409
;defect next
G0 X71.058 Y99.696
;okay next (not selected)
G1 X71.184 Y99.206 E13.73268
;okay next (not selected)
G1 X71.386 Y98.742 E13.74698
;okay next (not selected)
G1 X71.658 Y98.316 E13.76127
;okay next (not selected)
G1 X71.994 Y97.939 E13.77555
;okay next (not selected)
G1 X72.385 Y97.618 E13.78985
;okay next (not selected)
G1 F2100 E12.98985
;MESH:UM2_Tensile_test_specimen_fine_resolution_cntr_flat_ascii.stl
G0 F3600 X74.814 Y99.573
G0 X74.814 Y100.852
G0 X109.037 Y107.476
;okay next (not selected)
G1 F2100 E13.78985
G0 F3600 X109.049 Y107.575
;TYPE:WALL-INNER
;okay next (not selected)
G1 F1200 X108.065 Y107.828 E13.81857
;okay next (not selected)
G1 X107.155 Y108.204 E13.84641
;okay next (not selected)
G1 X106.309 Y108.705 E13.87421
;okay next (not selected)
G1 X105.74 Y109.162 E13.89484
;okay next (not selected)
G1 X74.8 Y109.162 E14.76955
;okay next (not selected)
G1 X74.8 Y100.838 E15.00488
;okay next (not selected)
G1 X105.74 Y100.838 E15.87959
;okay next (not selected)
G1 X106.309 Y101.295 E15.90022
;okay next (not selected)
G1 X107.155 Y101.796 E15.92801
;okay next (not selected)
G1 X108.065 Y102.172 E15.95585
;okay next (not selected)
G1 X109.049 Y102.425 E15.98457
;okay next (not selected)
G1 X140.951 Y102.425 E16.88648
;defect next
G0 X141.935 Y102.172
;okay next (not selected)
G1 X142.845 Y101.796 E16.94304
;okay next (not selected)
G1 X143.691 Y101.295 E16.97084
;okay next (not selected)
G1 X144.26 Y100.838 E16.99147
;okay next (not selected)
G1 X175.2 Y100.838 E17.86618
;okay next (not selected)
G1 X175.2 Y109.162 E18.1015
;okay next (not selected)
G1 X144.26 Y109.162 E18.97621
;okay next (not selected)
G1 X143.691 Y108.705 E18.99685
;okay next (not selected)
G1 X142.845 Y108.204 E19.02464
;okay next (not selected)
G1 X141.935 Y107.828 E19.05248
;okay next (not selected)
G1 X140.951 Y107.575 E19.0812
;okay next (not selected)
G1 X109.049 Y107.575 E19.98311
G0 F3600 X109.1 Y107.975
;TYPE:WALL-OUTER
;okay next (not selected)
G1 F1200 X108.192 Y108.208 E20.00961
;okay next (not selected)
G1 X107.334 Y108.563 E20.03586
;okay next (not selected)
G1 X106.537 Y109.035 E20.06205
;okay next (not selected)
G1 X105.88 Y109.562 E20.08586
;okay next (not selected)
G1 X74.4 Y109.562 E20.97583
;okay next (not selected)
G1 X74.4 Y100.438 E21.23378
;okay next (not selected)
G1 X105.88 Y100.438 E22.12375
;okay next (not selected)
G1 X106.537 Y100.965 E22.14756
;defect next
G0 X107.334 Y101.437
;okay next (not selected)
G1 X108.192 Y101.792 E22.2
;okay next (not selected)
G1 X109.1 Y102.025 E22.2265
;okay next (not selected)
G1 X140.9 Y102.025 E23.12553
;okay next (not selected)
G1 X141.808 Y101.792 E23.15203
;okay next (not selected)
G1 X142.666 Y101.437 E23.17828
;okay next (not selected)
G1 X143.463 Y100.965 E23.20447
;okay next (not selected)
G1 X144.12 Y100.438 E23.22828
;okay next (not selected)
G1 X175.6 Y100.438 E24.11825
;okay next (not selected)
G1 X175.6 Y109.562 E24.3762
;okay next (not selected)
G1 X144.12 Y109.562 E25.26617
;okay next (not selected)
G1 X143.463 Y109.035 E25.28998
;okay next (not selected)
G1 X142.666 Y108.563 E25.31617
;okay next (not selected)
G1 X141.808 Y108.208 E25.34242
;okay next (not selected)
G1 X140.9 Y107.975 E25.36892
;okay next (not selected)
G1 X109.1 Y107.975 E26.26794
G0 F3600 X108.907 Y108.024
G0 X109 Y107.185
;TYPE:SKIN
;okay next (not selected)
G1 F1200 X107.942 Y107.457 E26.29883
;okay next (not selected)
G1 X106.98 Y107.855 E26.32826
;okay next (not selected)
G1 X106.087 Y108.383 E26.35759
;okay next (not selected)
G1 X105.603 Y108.772 E26.37514
;defect next
G0 X75.19 Y108.772
;okay next (not selected)
G1 X75.19 Y101.228 E27.44823
;okay next (not selected)
G1 X105.603 Y101.228 E28.30804
;okay next (not selected)
G1 X106.087 Y101.617 E28.32559
;okay next (not selected)
G1 X106.98 Y102.145 E28.35492
;okay next (not selected)
G1 X107.942 Y102.543 E28.38436
;okay next (not selected)
G1 X109 Y102.815 E28.41524
;okay next (not selected)
G1 X141 Y102.815 E29.31992
;okay next (not selected)
G1 X142.058 Y102.543 E29.3508
;okay next (not selected)
G1 X143.02 Y102.145 E29.38023
;okay next (not selected)
G1 X143.913 Y101.617 E29.40956
;okay next (not selected)
G1 X144.397 Y101.228 E29.42712
;okay next (not selected)
G1 X174.81 Y101.228 E30.28692
;okay next (not selected)
G1 X174.81 Y108.772 E30.5002
;okay next (not selected)
G1 X144.397 Y108.772 E31.36001
;okay next (not selected)
G1 X143.913 Y108.383 E31.37757
;okay next (not selected)
G1 X143.02 Y107.855 E31.4069
;okay next (not selected)
G1 X142.058 Y107.457 E31.43633
;okay next (not selected)
G1 X141 Y107.185 E31.46721
;okay next (not selected)
G1 X109 Y107.185 E32.37189
G0 F3600 X75.781 Y108.591
;defect next
G0 F1200 X75.369 Y108.179
G0 F3600 X75.369 Y107.613
;okay next (not selected)
G1 F1200 X76.347 Y108.591 E32.42746
G0 F3600 X76.912 Y108.591
;okay next (not selected)
G1 F1200 X75.369 Y107.048 E32.48915
G0 F3600 X75.369 Y106.482
;okay next (not selected)
G1 F1200 X77.478 Y108.591 E32.57347
G0 F3600 X78.044 Y108.591
;okay next (not selected)
G1 F1200 X75.369 Y105.916 E32.68042
G0 F3600 X75.369 Y105.351
;okay next (not selected)
G1 F1200 X78.609 Y108.591 E32.80996
G0 F3600 X79.175 Y108.591
;okay next (not selected)
G1 F1200 X75.369 Y104.785 E32.96213
G0 F3600 X75.369 Y104.219
;okay next (not selected)
G1 F1200 X79.741 Y108.591 E33.13693
G0 F3600 X80.306 Y108.591
;okay next (not selected)
G1 F1200 X75.369 Y103.654 E33.33432
G0 F3600 X75.369 Y103.088
;okay next (not selected)
G1 F1200 X80.872 Y108.591 E33.55434
G0 F3600 X81.438 Y108.591
;okay next (not selected)
G1 F1200 X75.369 Y102.522 E33.79698
