;FLAVOR:Marlin
;TIME:1331
;Filament used: 0.878554m
;Layer height: 0.2
;MINX:70.6
;MINY:96.638
;MINZ:0.2
;MAXX:179.4
;MAXY:113.362
;MAXZ:6.4
;Generated with Cura_SteamEngine master
M82 ;absolute extrusion mode
G21 ; set units to millimeters
G90 ; use absolute positioning
M82 ; absolute extrusion mode
M104 S200 ; set extruder temp
M140 S60 ; set bed temp
M190 S60 ; wait for bed temp
M109 S200 ; wait for extruder temp
G28 W ; home all without mesh bed level
G80 ; mesh bed leveling
G92 E0.0 ; reset extruder distance position
G1 Y-3.0 F1000.0 ; go outside print area
G1 X60.0 E8.1 F1000.0 ; intro line
G1 X100.0 E19.35 F1000.0 ; intro line
G92 E0.0 ; reset extruder distance position
G92 E0
G92 E0
G1 F2100 E-0.8
;LAYER_COUNT:32
;LAYER:0
M107
G0 F3600 X72 Y97.406 Z0.2
;TYPE:SKIRT
G1 F2100 E0.0
G1 F1200 X72.446 Y97.109 E0.013635000000000001
G1 X72.932 Y96.881 E0.027297
G1 X73.446 Y96.729 E0.040932
G1 X74.109 Y96.648 E0.057924
G1 X74.53 Y96.638 E0.06864300000000001
G1 X105.299 Y96.638 E0.851526
G1 X106.009 Y96.649 E0.869598
G1 X106.507 Y96.692 E0.8823150000000001
G1 X107.122 Y96.788 E0.8981460000000001
G1 X108.728 Y97.064 E0.9396090000000001
G1 X111.408 Y97.445 E1.0084860000000002
G1 X114.125 Y97.753 E1.078065
G1 X116.854 Y97.986 E1.147752
G1 X119.548 Y98.137 E1.216404
G1 X123.676 Y98.225 E1.3214610000000002
G1 X126.309 Y98.225 E1.388457
G1 X129.089 Y98.186 E1.459197
G1 X131.818 Y98.07 E1.5286950000000001
G1 X134.547 Y97.876 E1.5983100000000001
G1 X137.224 Y97.611 E1.666755
G1 X139.955 Y97.262 E1.7368109999999999
G1 X142.867 Y96.788 E1.81188
G1 X143.503 Y96.69 E1.828251
G1 X144.078 Y96.645 E1.8429209999999998
G1 X144.642 Y96.638 E1.857276
G1 X175.145 Y96.638 E2.633391
G1 X175.843 Y96.648 E2.6511570000000004
G1 X176.377 Y96.696 E2.664801
G1 X176.898 Y96.822 E2.678436
G1 X177.395 Y97.025 E2.692098
G1 X177.856 Y97.299 E2.7057420000000003
G1 X178.271 Y97.638 E2.7193769999999997
G1 X178.631 Y98.036 E2.7330300000000003
G1 X178.928 Y98.482 E2.746665
G1 X179.156 Y98.968 E2.760327
G1 X179.308 Y99.482 E2.773962
G1 X179.39 Y100.147 E2.791008
G1 X179.4 Y100.568 E2.801727
G1 X179.4 Y109.071 E3.018078
G1 X179.391 Y109.798 E3.036573
G1 X179.344 Y110.332 E3.0502170000000004
G1 X179.219 Y110.853 E3.063843
G1 X179.017 Y111.35 E3.077496
G1 X178.744 Y111.812 E3.091149
G1 X178.406 Y112.228 E3.104793
G1 X178.009 Y112.589 E3.118446
G1 X177.563 Y112.887 E3.1320900000000003
G1 X177.078 Y113.115 E3.145725
G1 X176.564 Y113.269 E3.159378
G1 X175.892 Y113.352 E3.176604
G1 X175.47 Y113.362 E3.1873500000000003
G1 X144.701 Y113.362 E3.970233
G1 X143.991 Y113.351 E3.988305
G1 X143.493 Y113.308 E4.001022
G1 X142.878 Y113.212 E4.016853
G1 X141.272 Y112.936 E4.0583160000000005
G1 X138.592 Y112.555 E4.127193
G1 X135.875 Y112.247 E4.196772
G1 X133.146 Y112.014 E4.266458999999999
G1 X130.452 Y111.863 E4.335111
G1 X126.324 Y111.775 E4.440168
G1 X123.691 Y111.775 E4.5071639999999995
G1 X120.911 Y111.814 E4.577904
G1 X118.182 Y111.93 E4.6474020000000005
G1 X115.453 Y112.124 E4.717017
G1 X112.776 Y112.389 E4.785462
G1 X110.045 Y112.738 E4.855518
G1 X107.133 Y113.212 E4.930587
G1 X106.497 Y113.31 E4.946958
G1 X105.922 Y113.355 E4.961628
G1 X105.358 Y113.362 E4.975983
G1 X74.855 Y113.362 E5.752098
G1 X74.157 Y113.352 E5.769864
G1 X73.623 Y113.304 E5.783508
G1 X73.102 Y113.178 E5.797143
G1 X72.605 Y112.975 E5.810805
G1 X72.144 Y112.701 E5.824449
G1 X71.729 Y112.362 E5.838084
G1 X71.369 Y111.964 E5.851737
G1 X71.072 Y111.518 E5.865372
G1 X70.844 Y111.032 E5.879034
G1 X70.692 Y110.518 E5.892669000000001
G1 X70.61 Y109.85 E5.909796
G1 X70.6 Y109.42 E5.92074
G1 X70.6 Y100.858 E6.138585
G1 X70.61 Y100.193 E6.155514
G1 X70.658 Y99.659 E6.169149
G1 X70.785 Y99.138 E6.182793
G1 X70.988 Y98.641 E6.196455
G1 X71.262 Y98.18 E6.210099
G1 X71.602 Y97.765 E6.223752
G1 X72 Y97.406 E6.237387
G0 F3600 X72.385 Y97.618
G1 F1200 X72.822 Y97.364 E6.250248
G1 X73.293 Y97.181 E6.263109
G1 X73.788 Y97.075 E6.275988
G1 X74.44 Y97.039 E6.2926020000000005
G1 X105.293 Y97.038 E7.077627
G1 X106.003 Y97.049 E7.09569
G1 X106.445 Y97.087 E7.106985
G1 X107.054 Y97.182 E7.122663
G1 X108.67 Y97.46 E7.164387
G1 X111.344 Y97.84 E7.233102000000001
G1 X114.117 Y98.154 E7.304112
G1 X116.797 Y98.383 E7.372548
G1 X119.547 Y98.537 E7.442631000000001
G1 X123.667 Y98.625 E7.547490000000001
G1 X126.315 Y98.625 E7.614864
G1 X129.112 Y98.585 E7.686036
G1 X131.829 Y98.47 E7.755228000000001
G1 X134.575 Y98.275 E7.825275000000001
G1 X137.281 Y98.007 E7.894458
G1 X139.98 Y97.662 E7.9636949999999995
G1 X142.928 Y97.183 E8.039691000000001
G1 X143.564 Y97.085 E8.056062
G1 X144.083 Y97.045 E8.069301
G1 X144.647 Y97.038 E8.083656
G1 X175.139 Y97.038 E8.859492000000001
G1 X175.837 Y97.048 E8.877258
G1 X176.34 Y97.095 E8.89011
G1 X176.83 Y97.221 E8.902980000000001
G1 X177.294 Y97.423 E8.915859000000001
G1 X177.72 Y97.695 E8.92872
G1 X178.098 Y98.03 E8.941571999999999
G1 X178.418 Y98.421 E8.954424000000001
G1 X178.673 Y98.858 E8.967303000000001
G1 X178.856 Y99.329 E8.980155
G1 X178.963 Y99.823 E8.993016
G1 X178.999 Y100.478 E9.009711000000001
G1 X179 Y109.066 E9.228222
G1 X178.991 Y109.793 E9.246725999999999
G1 X178.945 Y110.296 E9.259578000000001
G1 X178.82 Y110.786 E9.272439
G1 X178.619 Y111.25 E9.285309
G1 X178.348 Y111.677 E9.298179000000001
G1 X178.013 Y112.056 E9.311049
G1 X177.623 Y112.377 E9.323901000000001
G1 X177.187 Y112.633 E9.336762
G1 X176.716 Y112.816 E9.349623
G1 X176.222 Y112.924 E9.362484
G1 X175.56 Y112.961 E9.379359
G1 X144.707 Y112.962 E10.164375
G1 X143.997 Y112.951 E10.182447
G1 X143.555 Y112.913 E10.193733000000002
G1 X142.946 Y112.818 E10.20942
G1 X141.33 Y112.54 E10.251135
G1 X138.656 Y112.16 E10.319859
G1 X135.883 Y111.846 E10.390869
G1 X133.203 Y111.617 E10.459305
G1 X130.453 Y111.463 E10.529388
G1 X126.333 Y111.375 E10.634238
G1 X123.685 Y111.375 E10.701612
G1 X120.888 Y111.415 E10.772793
G1 X118.171 Y111.53 E10.841985
G1 X115.425 Y111.725 E10.912023000000001
G1 X112.719 Y111.993 E10.981215
G1 X110.02 Y112.338 E11.050452
G1 X107.072 Y112.817 E11.126439
G1 X106.436 Y112.915 E11.14281
G1 X105.917 Y112.955 E11.156058
G1 X105.353 Y112.962 E11.170413
G1 X74.861 Y112.962 E11.946249
G1 X74.163 Y112.952 E11.964006000000001
G1 X73.66 Y112.905 E11.976867
G1 X73.17 Y112.779 E11.989737
G1 X72.706 Y112.577 E12.002616
G1 X72.28 Y112.305 E12.015476999999999
G1 X71.902 Y111.97 E12.028329000000001
G1 X71.582 Y111.579 E12.041181
G1 X71.327 Y111.142 E12.054051000000001
G1 X71.144 Y110.671 E12.066912
G1 X71.037 Y110.177 E12.079773
G1 X71.001 Y109.507 E12.096846
G1 X71 Y100.864 E12.316761
G1 X71.01 Y100.199 E12.333681
G1 X71.058 Y99.696 E12.346533
G1 X71.184 Y99.206 E12.359412
G1 X71.386 Y98.742 E12.372282
G1 X71.658 Y98.316 E12.385143
G1 X71.994 Y97.939 E12.397995000000002
G1 X72.385 Y97.618 E12.410865
G1 F2100 E11.690865
;MESH:UM2_Tensile_test_specimen_fine_resolution_cntr_flat_ascii.stl
G0 F3600 X74.814 Y99.573
G0 X74.814 Y100.852
G0 X109.037 Y107.476
G1 F2100 E12.410865
G0 F3600 X109.049 Y107.575
;TYPE:WALL-INNER
G1 F1200 X108.065 Y107.828 E12.436713
G1 X107.155 Y108.204 E12.461769
G1 X106.309 Y108.705 E12.486789
G1 X105.74 Y109.162 E12.505356
G1 X74.8 Y109.162 E13.292595
G1 X74.8 Y100.838 E13.504392000000001
G1 X105.74 Y100.838 E14.291631
G1 X106.309 Y101.295 E14.310198
G1 X107.155 Y101.796 E14.335209
G1 X108.065 Y102.172 E14.360265
G1 X109.049 Y102.425 E14.386113
G1 X140.951 Y102.425 E15.197832
G1 X141.935 Y102.172 E15.22368
G1 X142.845 Y101.796 E15.248736000000001
G1 X143.691 Y101.295 E15.273755999999999
G1 X144.26 Y100.838 E15.292323
G1 X175.2 Y100.838 E16.079562
G1 X175.2 Y109.162 E16.29135
G1 X144.26 Y109.162 E17.078588999999997
G1 X143.691 Y108.705 E17.097165
G1 X142.845 Y108.204 E17.122176000000003
G1 X141.935 Y107.828 E17.147232
G1 X140.951 Y107.575 E17.17308
G1 X109.049 Y107.575 E17.984799
G0 F3600 X109.1 Y107.975
;TYPE:WALL-OUTER
G1 F1200 X108.192 Y108.208 E18.008649
G1 X107.334 Y108.563 E18.032274
G1 X106.537 Y109.035 E18.055845
G1 X105.88 Y109.562 E18.077274
G1 X74.4 Y109.562 E18.878246999999998
G1 X74.4 Y100.438 E19.110402
G1 X105.88 Y100.438 E19.911375000000003
G1 X106.537 Y100.965 E19.932804
G1 X107.334 Y101.437 E19.956374999999998
G1 X108.192 Y101.792 E19.98
G1 X109.1 Y102.025 E20.003850000000003
G1 X140.9 Y102.025 E20.812977
G1 X141.808 Y101.792 E20.836827
G1 X142.666 Y101.437 E20.860452000000002
G1 X143.463 Y100.965 E20.884023000000003
G1 X144.12 Y100.438 E20.905452
G1 X175.6 Y100.438 E21.706425
G1 X175.6 Y109.562 E21.93858
G1 X144.12 Y109.562 E22.739553
G1 X143.463 Y109.035 E22.760982000000002
G1 X142.666 Y108.563 E22.784553
G1 X141.808 Y108.208 E22.808178
G1 X140.9 Y107.975 E22.832028
G1 X109.1 Y107.975 E23.641146
G0 F3600 X108.907 Y108.024
G0 X109 Y107.185
;TYPE:SKIN
G1 F1200 X107.942 Y107.457 E23.668947
G1 X106.98 Y107.855 E23.695434000000002
G1 X106.087 Y108.383 E23.721830999999998
G1 X105.603 Y108.772 E23.737626
G1 X75.19 Y108.772 E24.511455
G1 X75.19 Y101.228 E24.703407
G1 X105.603 Y101.228 E25.477235999999998
G1 X106.087 Y101.617 E25.493031
G1 X106.98 Y102.145 E25.519428
G1 X107.942 Y102.543 E25.545924000000003
G1 X109 Y102.815 E25.573716
G1 X141 Y102.815 E26.387928
G1 X142.058 Y102.543 E26.41572
G1 X143.02 Y102.145 E26.442207
G1 X143.913 Y101.617 E26.468604
G1 X144.397 Y101.228 E26.484408
G1 X174.81 Y101.228 E27.258228
G1 X174.81 Y108.772 E27.45018
G1 X144.397 Y108.772 E28.224009
G1 X143.913 Y108.383 E28.239812999999998
G1 X143.02 Y107.855 E28.26621
G1 X142.058 Y107.457 E28.292697
G1 X141 Y107.185 E28.320489000000002
G1 X109 Y107.185 E29.134701
G0 F3600 X75.781 Y108.591
G1 F1200 X75.369 Y108.179 E29.149524
G0 F3600 X75.369 Y107.613
G1 F1200 X76.347 Y108.591 E29.184714000000003
G0 F3600 X76.912 Y108.591
G1 F1200 X75.369 Y107.048 E29.240235000000002
G0 F3600 X75.369 Y106.482
G1 F1200 X77.478 Y108.591 E29.316123
G0 F3600 X78.044 Y108.591
G1 F1200 X75.369 Y105.916 E29.412378
G0 F3600 X75.369 Y105.351
G1 F1200 X78.609 Y108.591 E29.528964
G0 F3600 X79.175 Y108.591
G1 F1200 X75.369 Y104.785 E29.665917000000004
G0 F3600 X75.369 Y104.219
G1 F1200 X79.741 Y108.591 E29.823237
G0 F3600 X80.306 Y108.591
G1 F1200 X75.369 Y103.654 E30.000888
G0 F3600 X75.369 Y103.088
G1 F1200 X80.872 Y108.591 E30.198906000000004
G0 F3600 X81.438 Y108.591
G1 F1200 X75.369 Y102.522 E30.417282
G0 F3600 X75.369 Y101.957
G1 F1200 X82.003 Y108.591 E30.655998000000004
G0 F3600 X82.569 Y108.591
G1 F1200 X75.386 Y101.407 E30.914486999999998
G0 F3600 X75.951 Y101.407
G1 F1200 X83.135 Y108.591 E31.172985000000004
G0 F3600 X83.7 Y108.591
G1 F1200 X76.517 Y101.407 E31.431473999999998
G0 F3600 X77.083 Y101.407
G1 F1200 X84.266 Y108.591 E31.689963
G0 F3600 X84.832 Y108.591
G1 F1200 X77.648 Y101.407 E31.948460999999998
G0 F3600 X78.214 Y101.407
G1 F1200 X85.397 Y108.591 E32.20695
G0 F3600 X85.963 Y108.591
G1 F1200 X78.78 Y101.407 E32.46543
G0 F3600 X79.345 Y101.407
G1 F1200 X86.529 Y108.591 E32.723937
G0 F3600 X87.095 Y108.591
G1 F1200 X79.911 Y101.407 E32.982444
G0 F3600 X80.477 Y101.407
G1 F1200 X87.66 Y108.591 E33.240924
G0 F3600 X88.226 Y108.591
G1 F1200 X81.042 Y101.407 E33.499431
G0 F3600 X81.608 Y101.407
G1 F1200 X88.792 Y108.591 E33.757938
G0 F3600 X89.357 Y108.591
G1 F1200 X82.174 Y101.407 E34.016418
G0 F3600 X82.739 Y101.407
G1 F1200 X89.923 Y108.591 E34.274925
G0 F3600 X90.489 Y108.591
G1 F1200 X83.305 Y101.407 E34.533432000000005
G0 F3600 X83.871 Y101.407
G1 F1200 X91.054 Y108.591 E34.791912
G0 F3600 X91.62 Y108.591
G1 F1200 X84.437 Y101.407 E35.050401
G0 F3600 X85.002 Y101.407
G1 F1200 X92.186 Y108.591 E35.308899
G0 F3600 X92.751 Y108.591
G1 F1200 X85.568 Y101.407 E35.567388
G0 F3600 X86.134 Y101.407
G1 F1200 X93.317 Y108.591 E35.825877000000006
G0 F3600 X93.883 Y108.591
G1 F1200 X86.699 Y101.407 E36.084375
G0 F3600 X87.265 Y101.407
G1 F1200 X94.448 Y108.591 E36.342864000000006
G0 F3600 X95.014 Y108.591
G1 F1200 X87.831 Y101.407 E36.601353
G0 F3600 X88.396 Y101.407
G1 F1200 X95.58 Y108.591 E36.859851
G0 F3600 X96.146 Y108.591
G1 F1200 X88.962 Y101.407 E37.118358
G0 F3600 X89.528 Y101.407
G1 F1200 X96.711 Y108.591 E37.376838
G0 F3600 X97.277 Y108.591
G1 F1200 X90.093 Y101.407 E37.635345
G0 F3600 X90.66 Y101.408
G1 F1200 X97.843 Y108.591 E37.893816
G0 F3600 X98.408 Y108.591
G1 F1200 X91.225 Y101.408 E38.152277999999995
G0 F3600 X91.791 Y101.408
G1 F1200 X98.974 Y108.591 E38.410749
G0 F3600 X99.54 Y108.591
G1 F1200 X92.357 Y101.408 E38.66922
G0 F3600 X92.923 Y101.408
G1 F1200 X100.105 Y108.591 E38.927664
G0 F3600 X100.671 Y108.591
G1 F1200 X93.488 Y101.408 E39.186135
G0 F3600 X94.054 Y101.408
G1 F1200 X101.237 Y108.591 E39.444606
G0 F3600 X101.802 Y108.591
G1 F1200 X94.62 Y101.408 E39.70305
G0 F3600 X95.185 Y101.408
G1 F1200 X102.368 Y108.591 E39.961521000000005
G0 F3600 X102.934 Y108.591
G1 F1200 X95.751 Y101.408 E40.219983
G0 F3600 X96.317 Y101.408
G1 F1200 X103.499 Y108.591 E40.478436
G0 F3600 X104.065 Y108.591
G1 F1200 X96.882 Y101.408 E40.736907
G0 F3600 X97.448 Y101.408
G1 F1200 X104.631 Y108.591 E40.995369000000004
G0 F3600 X105.196 Y108.591
G1 F1200 X98.014 Y101.408 E41.25382200000001
G0 F3600 X98.579 Y101.408
G1 F1200 X105.663 Y108.492 E41.508729
G0 F3600 X105.976 Y108.239
G1 F1200 X99.145 Y101.408 E41.754528
G0 F3600 X99.711 Y101.408
G1 F1200 X106.33 Y108.027 E41.992704
G0 F3600 X106.686 Y107.817
G1 F1200 X100.276 Y101.408 E42.223338
G0 F3600 X100.842 Y101.408
G1 F1200 X107.06 Y107.625 E42.44706
G0 F3600 X107.46 Y107.46
G1 F1200 X101.408 Y101.408 E42.664833
G0 F3600 X101.973 Y101.408
G1 F1200 X107.861 Y107.295 E42.876684000000004
G0 F3600 X108.307 Y107.176
G1 F1200 X102.539 Y101.408 E43.084233
G0 F3600 X103.105 Y101.408
G1 F1200 X108.757 Y107.06 E43.287615
G0 F3600 X109.267 Y107.004
G1 F1200 X103.671 Y101.408 E43.488972000000004
G0 F3600 X104.236 Y101.408
G1 F1200 X109.832 Y107.004 E43.690338000000004
G0 F3600 X110.398 Y107.004
G1 F1200 X104.802 Y101.408 E43.891704000000004
G0 F3600 X105.368 Y101.408
G1 F1200 X110.964 Y107.004 E44.093061
G0 F3600 X111.529 Y107.004
G1 F1200 X106.735 Y102.21 E44.265564
G1 X106.665 Y102.14
G0 F3600 X107.748 Y102.657
G1 F1200 X112.095 Y107.004 E44.421984
G0 F3600 X112.661 Y107.004
G1 F1200 X108.539 Y102.882 E44.570313000000006
G0 F3600 X109.217 Y102.995
G1 F1200 X113.226 Y107.004 E44.714565
G0 F3600 X113.792 Y107.004
G1 F1200 X109.783 Y102.995 E44.858826
G0 F3600 X110.348 Y102.995
G1 F1200 X114.358 Y107.004 E45.003096
G0 F3600 X114.923 Y107.004
G1 F1200 X110.914 Y102.995 E45.147357
G0 F3600 X111.48 Y102.995
G1 F1200 X115.489 Y107.004 E45.291609
G0 F3600 X116.055 Y107.004
G1 F1200 X112.046 Y102.995 E45.43587
G0 F3600 X112.611 Y102.995
G1 F1200 X116.621 Y107.004 E45.58014
G0 F3600 X117.186 Y107.004
G1 F1200 X113.177 Y102.995 E45.724401
G0 F3600 X113.743 Y102.995
G1 F1200 X117.752 Y107.004 E45.868653
G0 F3600 X118.318 Y107.004
G1 F1200 X114.308 Y102.995 E46.012932000000006
G0 F3600 X114.874 Y102.995
G1 F1200 X118.883 Y107.004 E46.157184
G0 F3600 X119.449 Y107.004
G1 F1200 X115.44 Y102.995 E46.301445
G0 F3600 X116.005 Y102.995
G1 F1200 X120.015 Y107.004 E46.445724000000006
G0 F3600 X120.58 Y107.004
G1 F1200 X116.571 Y102.995 E46.589976
G0 F3600 X117.137 Y102.995
G1 F1200 X121.146 Y107.004 E46.734237
G0 F3600 X121.712 Y107.004
G1 F1200 X117.702 Y102.995 E46.878507
G0 F3600 X118.268 Y102.995
G1 F1200 X122.277 Y107.004 E47.022768
G0 F3600 X122.843 Y107.004
G1 F1200 X118.834 Y102.995 E47.16702
G0 F3600 X119.399 Y102.995
G1 F1200 X123.409 Y107.004 E47.311299
G0 F3600 X123.974 Y107.004
G1 F1200 X119.965 Y102.995 E47.455551
G0 F3600 X120.531 Y102.995
G1 F1200 X124.54 Y107.004 E47.599812
G0 F3600 X125.106 Y107.004
G1 F1200 X121.096 Y102.995 E47.744082
G0 F3600 X121.662 Y102.995
G1 F1200 X125.671 Y107.004 E47.888343
G0 F3600 X126.237 Y107.004
G1 F1200 X122.228 Y102.995 E48.032604
G0 F3600 X122.794 Y102.995
G1 F1200 X126.803 Y107.004 E48.176856
G0 F3600 X127.369 Y107.004
G1 F1200 X123.359 Y102.995 E48.321135000000005
G0 F3600 X123.925 Y102.995
G1 F1200 X127.934 Y107.004 E48.46538700000001
G0 F3600 X128.5 Y107.004
G1 F1200 X124.491 Y102.995 E48.609648
G0 F3600 X125.056 Y102.995
G1 F1200 X129.066 Y107.004 E48.753918
G0 F3600 X129.631 Y107.004
