;FLAVOR:Marlin
;TIME:1331
;Filament used: 0.878554m
;Layer height: 0.2
;MINX:70.6
;MINY:96.638
;MINZ:0.2
;MAXX:179.4
;MAXY:113.362
;MAXZ:6.4
;Generated with Cura_SteamEngine master
M82 ;absolute extrusion mode
G21 ; set units to millimeters
G90 ; use absolute positioning
M82 ; absolute extrusion mode
M104 S200 ; set extruder temp
M140 S60 ; set bed temp
M190 S60 ; wait for bed temp
M109 S200 ; wait for extruder temp
G28 W ; home all without mesh bed level
G80 ; mesh bed leveling
G92 E0.0 ; reset extruder distance position
G1 Y-3.0 F1000.0 ; go outside print area
G1 X60.0 E4.5 F1000.0 ; intro line
G1 X100.0 E10.75 F1000.0 ; intro line
G92 E0.0 ; reset extruder distance position
G92 E0
G92 E0
G1 F2100 E-0.8
;LAYER_COUNT:32
;LAYER:0
M107
G0 F3600 X72 Y97.406 Z0.2
;TYPE:SKIRT
G1 F2100 E0.0
G1 F1200 X72.446 Y97.109 E0.007575
G1 X72.932 Y96.881 E0.015165
G1 X73.446 Y96.729 E0.02274
G1 X74.109 Y96.648 E0.03218
G1 X74.53 Y96.638 E0.038135
G1 X105.299 Y96.638 E0.47307
G1 X106.009 Y96.649 E0.48311
G1 X106.507 Y96.692 E0.490175
G1 X107.122 Y96.788 E0.49897
G1 X108.728 Y97.064 E0.522005
G1 X111.408 Y97.445 E0.56027
G1 X114.125 Y97.753 E0.598925
G1 X116.854 Y97.986 E0.63764
G1 X119.548 Y98.137 E0.67578
G1 X123.676 Y98.225 E0.734145
G1 X126.309 Y98.225 E0.771365
G1 X129.089 Y98.186 E0.810665
G1 X131.818 Y98.07 E0.849275
G1 X134.547 Y97.876 E0.88795
G1 X137.224 Y97.611 E0.925975
G1 X139.955 Y97.262 E0.964895
G1 X142.867 Y96.788 E1.0066
G1 X143.503 Y96.69 E1.015695
G1 X144.078 Y96.645 E1.023845
G1 X144.642 Y96.638 E1.03182
G1 X175.145 Y96.638 E1.462995
G1 X175.843 Y96.648 E1.472865
G1 X176.377 Y96.696 E1.480445
G1 X176.898 Y96.822 E1.48802
G1 X177.395 Y97.025 E1.49561
G1 X177.856 Y97.299 E1.50319
G1 X178.271 Y97.638 E1.510765
G1 X178.631 Y98.036 E1.51835
G1 X178.928 Y98.482 E1.525925
G1 X179.156 Y98.968 E1.533515
G1 X179.308 Y99.482 E1.54109
G1 X179.39 Y100.147 E1.55056
G1 X179.4 Y100.568 E1.556515
G1 X179.4 Y109.071 E1.67671
G1 X179.391 Y109.798 E1.686985
G1 X179.344 Y110.332 E1.694565
G1 X179.219 Y110.853 E1.702135
G1 X179.017 Y111.35 E1.70972
G1 X178.744 Y111.812 E1.717305
G1 X178.406 Y112.228 E1.724885
G1 X178.009 Y112.589 E1.73247
G1 X177.563 Y112.887 E1.74005
G1 X177.078 Y113.115 E1.747625
G1 X176.564 Y113.269 E1.75521
G1 X175.892 Y113.352 E1.76478
G1 X175.47 Y113.362 E1.77075
G1 X144.701 Y113.362 E2.205685
G1 X143.991 Y113.351 E2.215725
G1 X143.493 Y113.308 E2.22279
G1 X142.878 Y113.212 E2.231585
G1 X141.272 Y112.936 E2.25462
G1 X138.592 Y112.555 E2.292885
G1 X135.875 Y112.247 E2.33154
G1 X133.146 Y112.014 E2.370255
G1 X130.452 Y111.863 E2.408395
G1 X126.324 Y111.775 E2.46676
G1 X123.691 Y111.775 E2.50398
G1 X120.911 Y111.814 E2.54328
G1 X118.182 Y111.93 E2.58189
G1 X115.453 Y112.124 E2.620565
G1 X112.776 Y112.389 E2.65859
G1 X110.045 Y112.738 E2.69751
G1 X107.133 Y113.212 E2.739215
G1 X106.497 Y113.31 E2.74831
G1 X105.922 Y113.355 E2.75646
G1 X105.358 Y113.362 E2.764435
G1 X74.855 Y113.362 E3.19561
G1 X74.157 Y113.352 E3.20548
G1 X73.623 Y113.304 E3.21306
G1 X73.102 Y113.178 E3.220635
G1 X72.605 Y112.975 E3.228225
G1 X72.144 Y112.701 E3.235805
G1 X71.729 Y112.362 E3.24338
G1 X71.369 Y111.964 E3.250965
G1 X71.072 Y111.518 E3.25854
G1 X70.844 Y111.032 E3.26613
G1 X70.692 Y110.518 E3.273705
G1 X70.61 Y109.85 E3.28322
G1 X70.6 Y109.42 E3.2893
G1 X70.6 Y100.858 E3.410325
G1 X70.61 Y100.193 E3.41973
G1 X70.658 Y99.659 E3.427305
G1 X70.785 Y99.138 E3.434885
G1 X70.988 Y98.641 E3.442475
G1 X71.262 Y98.18 E3.450055
G1 X71.602 Y97.765 E3.45764
G1 X72 Y97.406 E3.465215
G0 F3600 X72.385 Y97.618
G1 F1200 X72.822 Y97.364 E3.47236
G1 X73.293 Y97.181 E3.479505
G1 X73.788 Y97.075 E3.48666
G1 X74.44 Y97.039 E3.49589
G1 X105.293 Y97.038 E3.932015
G1 X106.003 Y97.049 E3.94205
G1 X106.445 Y97.087 E3.948325
G1 X107.054 Y97.182 E3.957035
G1 X108.67 Y97.46 E3.980215
G1 X111.344 Y97.84 E4.01839
G1 X114.117 Y98.154 E4.05784
G1 X116.797 Y98.383 E4.09586
G1 X119.547 Y98.537 E4.134795
G1 X123.667 Y98.625 E4.19305
G1 X126.315 Y98.625 E4.23048
G1 X129.112 Y98.585 E4.27002
G1 X131.829 Y98.47 E4.30846
G1 X134.575 Y98.275 E4.347375
G1 X137.281 Y98.007 E4.38581
G1 X139.98 Y97.662 E4.424275
G1 X142.928 Y97.183 E4.466495
G1 X143.564 Y97.085 E4.47559
G1 X144.083 Y97.045 E4.482945
G1 X144.647 Y97.038 E4.49092
G1 X175.139 Y97.038 E4.92194
G1 X175.837 Y97.048 E4.93181
G1 X176.34 Y97.095 E4.93895
G1 X176.83 Y97.221 E4.9461
G1 X177.294 Y97.423 E4.953255
G1 X177.72 Y97.695 E4.9604
G1 X178.098 Y98.03 E4.96754
G1 X178.418 Y98.421 E4.97468
G1 X178.673 Y98.858 E4.981835
G1 X178.856 Y99.329 E4.988975
G1 X178.963 Y99.823 E4.99612
G1 X178.999 Y100.478 E5.005395
G1 X179 Y109.066 E5.12679
G1 X178.991 Y109.793 E5.13707
G1 X178.945 Y110.296 E5.14421
G1 X178.82 Y110.786 E5.151355
G1 X178.619 Y111.25 E5.158505
G1 X178.348 Y111.677 E5.165655
G1 X178.013 Y112.056 E5.172805
G1 X177.623 Y112.377 E5.179945
G1 X177.187 Y112.633 E5.18709
G1 X176.716 Y112.816 E5.194235
G1 X176.222 Y112.924 E5.20138
G1 X175.56 Y112.961 E5.210755
G1 X144.707 Y112.962 E5.646875
G1 X143.997 Y112.951 E5.656915
G1 X143.555 Y112.913 E5.663185
G1 X142.946 Y112.818 E5.6719
G1 X141.33 Y112.54 E5.695075
G1 X138.656 Y112.16 E5.733255
G1 X135.883 Y111.846 E5.772705
G1 X133.203 Y111.617 E5.810725
G1 X130.453 Y111.463 E5.84966
G1 X126.333 Y111.375 E5.90791
G1 X123.685 Y111.375 E5.94534
G1 X120.888 Y111.415 E5.984885
G1 X118.171 Y111.53 E6.023325
G1 X115.425 Y111.725 E6.062235
G1 X112.719 Y111.993 E6.100675
G1 X110.02 Y112.338 E6.13914
G1 X107.072 Y112.817 E6.181355
G1 X106.436 Y112.915 E6.19045
G1 X105.917 Y112.955 E6.19781
G1 X105.353 Y112.962 E6.205785
G1 X74.861 Y112.962 E6.636805
G1 X74.163 Y112.952 E6.64667
G1 X73.66 Y112.905 E6.653815
G1 X73.17 Y112.779 E6.660965
G1 X72.706 Y112.577 E6.66812
G1 X72.28 Y112.305 E6.675265
G1 X71.902 Y111.97 E6.682405
G1 X71.582 Y111.579 E6.689545
G1 X71.327 Y111.142 E6.696695
G1 X71.144 Y110.671 E6.70384
G1 X71.037 Y110.177 E6.710985
G1 X71.001 Y109.507 E6.72047
G1 X71 Y100.864 E6.842645
G1 X71.01 Y100.199 E6.852045
G1 X71.058 Y99.696 E6.859185
G1 X71.184 Y99.206 E6.86634
G1 X71.386 Y98.742 E6.87349
G1 X71.658 Y98.316 E6.880635
G1 X71.994 Y97.939 E6.887775
G1 X72.385 Y97.618 E6.894925
G1 F2100 E6.494925
;MESH:UM2_Tensile_test_specimen_fine_resolution_cntr_flat_ascii.stl
G0 F3600 X74.814 Y99.573
G0 X74.814 Y100.852
G0 X109.037 Y107.476
G1 F2100 E6.894925
G0 F3600 X109.049 Y107.575
;TYPE:WALL-INNER
G1 F1200 X108.065 Y107.828 E6.909285
G1 X107.155 Y108.204 E6.923205
G1 X106.309 Y108.705 E6.937105
G1 X105.74 Y109.162 E6.94742
G1 X74.8 Y109.162 E7.384775
G1 X74.8 Y100.838 E7.50244
G1 X105.74 Y100.838 E7.939795
G1 X106.309 Y101.295 E7.95011
G1 X107.155 Y101.796 E7.964005
G1 X108.065 Y102.172 E7.977925
G1 X109.049 Y102.425 E7.992285
G1 X140.951 Y102.425 E8.44324
G1 X141.935 Y102.172 E8.4576
G1 X142.845 Y101.796 E8.47152
G1 X143.691 Y101.295 E8.48542
G1 X144.26 Y100.838 E8.495735
G1 X175.2 Y100.838 E8.93309
G1 X175.2 Y109.162 E9.05075
G1 X144.26 Y109.162 E9.488105
G1 X143.691 Y108.705 E9.498425
G1 X142.845 Y108.204 E9.51232
G1 X141.935 Y107.828 E9.52624
G1 X140.951 Y107.575 E9.5406
G1 X109.049 Y107.575 E9.991555
G0 F3600 X109.1 Y107.975
;TYPE:WALL-OUTER
G1 F1200 X108.192 Y108.208 E10.004805
G1 X107.334 Y108.563 E10.01793
G1 X106.537 Y109.035 E10.031025
G1 X105.88 Y109.562 E10.04293
G1 X74.4 Y109.562 E10.487915
G1 X74.4 Y100.438 E10.61689
G1 X105.88 Y100.438 E11.061875
G1 X106.537 Y100.965 E11.07378
G1 X107.334 Y101.437 E11.086875
G1 X108.192 Y101.792 E11.1
G1 X109.1 Y102.025 E11.11325
G1 X140.9 Y102.025 E11.562765
G1 X141.808 Y101.792 E11.576015
G1 X142.666 Y101.437 E11.58914
G1 X143.463 Y100.965 E11.602235
G1 X144.12 Y100.438 E11.61414
G1 X175.6 Y100.438 E12.059125
G1 X175.6 Y109.562 E12.1881
G1 X144.12 Y109.562 E12.633085
G1 X143.463 Y109.035 E12.64499
G1 X142.666 Y108.563 E12.658085
G1 X141.808 Y108.208 E12.67121
G1 X140.9 Y107.975 E12.68446
G1 X109.1 Y107.975 E13.13397
G0 F3600 X108.907 Y108.024
G0 X109 Y107.185
;TYPE:SKIN
G1 F1200 X107.942 Y107.457 E13.149415
G1 X106.98 Y107.855 E13.16413
G1 X106.087 Y108.383 E13.178795
G1 X105.603 Y108.772 E13.18757
G1 X75.19 Y108.772 E13.617475
G1 X75.19 Y101.228 E13.724115
G1 X105.603 Y101.228 E14.15402
G1 X106.087 Y101.617 E14.162795
G1 X106.98 Y102.145 E14.17746
G1 X107.942 Y102.543 E14.19218
G1 X109 Y102.815 E14.20762
G1 X141 Y102.815 E14.65996
G1 X142.058 Y102.543 E14.6754
G1 X143.02 Y102.145 E14.690115
G1 X143.913 Y101.617 E14.70478
G1 X144.397 Y101.228 E14.71356
G1 X174.81 Y101.228 E15.14346
G1 X174.81 Y108.772 E15.2501
G1 X144.397 Y108.772 E15.680005
G1 X143.913 Y108.383 E15.688785
G1 X143.02 Y107.855 E15.70345
G1 X142.058 Y107.457 E15.718165
G1 X141 Y107.185 E15.733605
G1 X109 Y107.185 E16.185945
G0 F3600 X75.781 Y108.591
G1 F1200 X75.369 Y108.179 E16.19418
G0 F3600 X75.369 Y107.613
G1 F1200 X76.347 Y108.591 E16.21373
G0 F3600 X76.912 Y108.591
G1 F1200 X75.369 Y107.048 E16.244575
G0 F3600 X75.369 Y106.482
G1 F1200 X77.478 Y108.591 E16.286735
G0 F3600 X78.044 Y108.591
G1 F1200 X75.369 Y105.916 E16.34021
G0 F3600 X75.369 Y105.351
G1 F1200 X78.609 Y108.591 E16.40498
G0 F3600 X79.175 Y108.591
G1 F1200 X75.369 Y104.785 E16.481065
G0 F3600 X75.369 Y104.219
G1 F1200 X79.741 Y108.591 E16.568465
G0 F3600 X80.306 Y108.591
G1 F1200 X75.369 Y103.654 E16.66716
G0 F3600 X75.369 Y103.088
G1 F1200 X80.872 Y108.591 E16.77717
G0 F3600 X81.438 Y108.591
G1 F1200 X75.369 Y102.522 E16.89849
G0 F3600 X75.369 Y101.957
G1 F1200 X82.003 Y108.591 E17.03111
G0 F3600 X82.569 Y108.591
G1 F1200 X75.386 Y101.407 E17.174715
G0 F3600 X75.951 Y101.407
G1 F1200 X83.135 Y108.591 E17.318325
G0 F3600 X83.7 Y108.591
G1 F1200 X76.517 Y101.407 E17.46193
G0 F3600 X77.083 Y101.407
G1 F1200 X84.266 Y108.591 E17.605535
G0 F3600 X84.832 Y108.591
G1 F1200 X77.648 Y101.407 E17.749145
G0 F3600 X78.214 Y101.407
G1 F1200 X85.397 Y108.591 E17.89275
G0 F3600 X85.963 Y108.591
G1 F1200 X78.78 Y101.407 E18.03635
G0 F3600 X79.345 Y101.407
G1 F1200 X86.529 Y108.591 E18.179965
G0 F3600 X87.095 Y108.591
G1 F1200 X79.911 Y101.407 E18.32358
G0 F3600 X80.477 Y101.407
G1 F1200 X87.66 Y108.591 E18.46718
G0 F3600 X88.226 Y108.591
G1 F1200 X81.042 Y101.407 E18.610795
G0 F3600 X81.608 Y101.407
G1 F1200 X88.792 Y108.591 E18.75441
G0 F3600 X89.357 Y108.591
G1 F1200 X82.174 Y101.407 E18.89801
G0 F3600 X82.739 Y101.407
G1 F1200 X89.923 Y108.591 E19.041625
G0 F3600 X90.489 Y108.591
G1 F1200 X83.305 Y101.407 E19.18524
G0 F3600 X83.871 Y101.407
G1 F1200 X91.054 Y108.591 E19.32884
G0 F3600 X91.62 Y108.591
G1 F1200 X84.437 Y101.407 E19.472445
G0 F3600 X85.002 Y101.407
G1 F1200 X92.186 Y108.591 E19.616055
G0 F3600 X92.751 Y108.591
G1 F1200 X85.568 Y101.407 E19.75966
G0 F3600 X86.134 Y101.407
G1 F1200 X93.317 Y108.591 E19.903265
G0 F3600 X93.883 Y108.591
G1 F1200 X86.699 Y101.407 E20.046875
G0 F3600 X87.265 Y101.407
G1 F1200 X94.448 Y108.591 E20.19048
G0 F3600 X95.014 Y108.591
G1 F1200 X87.831 Y101.407 E20.334085
G0 F3600 X88.396 Y101.407
G1 F1200 X95.58 Y108.591 E20.477695
G0 F3600 X96.146 Y108.591
G1 F1200 X88.962 Y101.407 E20.62131
G0 F3600 X89.528 Y101.407
G1 F1200 X96.711 Y108.591 E20.76491
G0 F3600 X97.277 Y108.591
G1 F1200 X90.093 Y101.407 E20.908525
G0 F3600 X90.66 Y101.408
G1 F1200 X97.843 Y108.591 E21.05212
G0 F3600 X98.408 Y108.591
G1 F1200 X91.225 Y101.408 E21.19571
G0 F3600 X91.791 Y101.408
G1 F1200 X98.974 Y108.591 E21.339305
G0 F3600 X99.54 Y108.591
G1 F1200 X92.357 Y101.408 E21.4829
G0 F3600 X92.923 Y101.408
G1 F1200 X100.105 Y108.591 E21.62648
G0 F3600 X100.671 Y108.591
G1 F1200 X93.488 Y101.408 E21.770075
G0 F3600 X94.054 Y101.408
G1 F1200 X101.237 Y108.591 E21.91367
G0 F3600 X101.802 Y108.591
G1 F1200 X94.62 Y101.408 E22.05725
G0 F3600 X95.185 Y101.408
G1 F1200 X102.368 Y108.591 E22.200845
G0 F3600 X102.934 Y108.591
G1 F1200 X95.751 Y101.408 E22.344435
G0 F3600 X96.317 Y101.408
G1 F1200 X103.499 Y108.591 E22.48802
G0 F3600 X104.065 Y108.591
G1 F1200 X96.882 Y101.408 E22.631615
G0 F3600 X97.448 Y101.408
G1 F1200 X104.631 Y108.591 E22.775205
G0 F3600 X105.196 Y108.591
G1 F1200 X98.014 Y101.408 E22.91879
G0 F3600 X98.579 Y101.408
G1 F1200 X105.663 Y108.492 E23.060405
G0 F3600 X105.976 Y108.239
G1 F1200 X99.145 Y101.408 E23.19696
G0 F3600 X99.711 Y101.408
G1 F1200 X106.33 Y108.027 E23.32928
G0 F3600 X106.686 Y107.817
G1 F1200 X100.276 Y101.408 E23.45741
G0 F3600 X100.842 Y101.408
G1 F1200 X107.06 Y107.625 E23.5817
G0 F3600 X107.46 Y107.46
G1 F1200 X101.408 Y101.408 E23.702685
G0 F3600 X101.973 Y101.408
G1 F1200 X107.861 Y107.295 E23.82038
G0 F3600 X108.307 Y107.176
G1 F1200 X102.539 Y101.408 E23.935685
G0 F3600 X103.105 Y101.408
G1 F1200 X108.757 Y107.06 E24.048675
G0 F3600 X109.267 Y107.004
G1 F1200 X103.671 Y101.408 E24.16054
G0 F3600 X104.236 Y101.408
G1 F1200 X109.832 Y107.004 E24.27241
G0 F3600 X110.398 Y107.004
G1 F1200 X104.802 Y101.408 E24.38428
G0 F3600 X105.368 Y101.408
G1 F1200 X110.964 Y107.004 E24.496145
G0 F3600 X111.529 Y107.004
G1 F1200 X106.735 Y102.21 E24.59198
G1 X106.665 Y102.14
G0 F3600 X107.748 Y102.657
G1 F1200 X112.095 Y107.004 E24.67888
G0 F3600 X112.661 Y107.004
G1 F1200 X108.539 Y102.882 E24.761285
G0 F3600 X109.217 Y102.995
G1 F1200 X113.226 Y107.004 E24.841425
G0 F3600 X113.792 Y107.004
G1 F1200 X109.783 Y102.995 E24.92157
G0 F3600 X110.348 Y102.995
G1 F1200 X114.358 Y107.004 E25.00172
G0 F3600 X114.923 Y107.004
G1 F1200 X110.914 Y102.995 E25.081865
G0 F3600 X111.48 Y102.995
G1 F1200 X115.489 Y107.004 E25.162005
G0 F3600 X116.055 Y107.004
G1 F1200 X112.046 Y102.995 E25.24215
G0 F3600 X112.611 Y102.995
G1 F1200 X116.621 Y107.004 E25.3223
G0 F3600 X117.186 Y107.004
G1 F1200 X113.177 Y102.995 E25.402445
G0 F3600 X113.743 Y102.995
G1 F1200 X117.752 Y107.004 E25.482585
G0 F3600 X118.318 Y107.004
G1 F1200 X114.308 Y102.995 E25.56274
G0 F3600 X114.874 Y102.995
G1 F1200 X118.883 Y107.004 E25.64288
G0 F3600 X119.449 Y107.004
G1 F1200 X115.44 Y102.995 E25.723025
G0 F3600 X116.005 Y102.995
G1 F1200 X120.015 Y107.004 E25.80318
G0 F3600 X120.58 Y107.004
G1 F1200 X116.571 Y102.995 E25.88332
G0 F3600 X117.137 Y102.995
G1 F1200 X121.146 Y107.004 E25.963465
G0 F3600 X121.712 Y107.004
G1 F1200 X117.702 Y102.995 E26.043615
G0 F3600 X118.268 Y102.995
G1 F1200 X122.277 Y107.004 E26.12376
G0 F3600 X122.843 Y107.004
G1 F1200 X118.834 Y102.995 E26.2039
G0 F3600 X119.399 Y102.995
G1 F1200 X123.409 Y107.004 E26.284055
G0 F3600 X123.974 Y107.004
G1 F1200 X119.965 Y102.995 E26.364195
G0 F3600 X120.531 Y102.995
G1 F1200 X124.54 Y107.004 E26.44434
G0 F3600 X125.106 Y107.004
G1 F1200 X121.096 Y102.995 E26.52449
G0 F3600 X121.662 Y102.995
G1 F1200 X125.671 Y107.004 E26.604635
G0 F3600 X126.237 Y107.004
G1 F1200 X122.228 Y102.995 E26.68478
G0 F3600 X122.794 Y102.995
G1 F1200 X126.803 Y107.004 E26.76492
G0 F3600 X127.369 Y107.004
G1 F1200 X123.359 Y102.995 E26.845075
G0 F3600 X123.925 Y102.995
G1 F1200 X127.934 Y107.004 E26.925215
G0 F3600 X128.5 Y107.004
G1 F1200 X124.491 Y102.995 E27.00536
G0 F3600 X125.056 Y102.995
G1 F1200 X129.066 Y107.004 E27.08551
G0 F3600 X129.631 Y107.004
G1 F1200 X125.622 Y102.995 E27.165655
G0 F3600 X126.188 Y102.995
G1 F1200 X130.197 Y107.004 E27.245795
G0 F3600 X130.763 Y107.004
G1 F1200 X126.753 Y102.995 E27.32595
G0 F3600 X127.319 Y102.995
G1 F1200 X131.328 Y107.004 E27.40609
G0 F3600 X131.894 Y107.004
G1 F1200 X127.885 Y102.995 E27.486235
G0 F3600 X128.45 Y102.995
G1 F1200 X132.46 Y107.004 E27.566385
G0 F3600 X133.025 Y107.004
G1 F1200 X129.016 Y102.995 E27.64653
G0 F3600 X129.582 Y102.995
G1 F1200 X133.591 Y107.004 E27.726675
G0 F3600 X134.157 Y107.004
G1 F1200 X130.147 Y102.995 E27.806825
G0 F3600 X130.713 Y102.995
G1 F1200 X134.722 Y107.004 E27.88697
G0 F3600 X135.288 Y107.004
G1 F1200 X131.279 Y102.995 E27.96711
G0 F3600 X131.845 Y102.995
G1 F1200 X135.854 Y107.004 E28.047255
G0 F3600 X136.419 Y107.004
G1 F1200 X132.41 Y102.995 E28.127395
G0 F3600 X132.976 Y102.995
G1 F1200 X136.985 Y107.004 E28.20754
G0 F3600 X137.551 Y107.004
G1 F1200 X133.542 Y102.995 E28.28768
G0 F3600 X134.107 Y102.995
G1 F1200 X138.117 Y107.004 E28.367835
G0 F3600 X138.682 Y107.004
G1 F1200 X134.673 Y102.995 E28.447975
G0 F3600 X135.239 Y102.995
