;FLAVOR:Marlin
;TIME:1331
;Filament used: 0.878554m
;Layer height: 0.2
;MINX:70.6
;MINY:96.638
;MINZ:0.2
;MAXX:179.4
;MAXY:113.362
;MAXZ:6.4
;Generated with Cura_SteamEngine master
M82 ;absolute extrusion mode
G21 ; set units to millimeters
G90 ; use absolute positioning
M82 ; absolute extrusion mode
M104 S200 ; set extruder temp
M140 S60 ; set bed temp
M190 S60 ; wait for bed temp
M109 S200 ; wait for extruder temp
G28 W ; home all without mesh bed level
G80 ; mesh bed leveling
G92 E0.0 ; reset extruder distance position
G1 Y-3.0 F1000.0 ; go outside print area
G1 X60.0 E7.2 F1000.0 ; intro line
G1 X100.0 E17.2 F1000.0 ; intro line
G92 E0.0 ; reset extruder distance position
G92 E0
G92 E0
G1 F2100 E-0.8
;LAYER_COUNT:32
;LAYER:0
M107
G0 F3600 X72 Y97.406 Z0.2
;TYPE:SKIRT
G1 F2100 E0.0
G1 F1200 X72.446 Y97.109 E0.01212
G1 X72.932 Y96.881 E0.024264
G1 X73.446 Y96.729 E0.036384
G1 X74.109 Y96.648 E0.051488000000000006
G1 X74.53 Y96.638 E0.06101600000000001
G1 X105.299 Y96.638 E0.756912
G1 X106.009 Y96.649 E0.772976
G1 X106.507 Y96.692 E0.7842800000000001
G1 X107.122 Y96.788 E0.7983520000000001
G1 X108.728 Y97.064 E0.8352080000000002
G1 X111.408 Y97.445 E0.8964320000000001
G1 X114.125 Y97.753 E0.9582800000000001
G1 X116.854 Y97.986 E1.020224
G1 X119.548 Y98.137 E1.0812480000000002
G1 X123.676 Y98.225 E1.1746320000000001
G1 X126.309 Y98.225 E1.234184
G1 X129.089 Y98.186 E1.297064
G1 X131.818 Y98.07 E1.35884
G1 X134.547 Y97.876 E1.4207200000000002
G1 X137.224 Y97.611 E1.48156
G1 X139.955 Y97.262 E1.543832
G1 X142.867 Y96.788 E1.61056
G1 X143.503 Y96.69 E1.6251120000000001
G1 X144.078 Y96.645 E1.6381519999999998
G1 X144.642 Y96.638 E1.650912
G1 X175.145 Y96.638 E2.340792
G1 X175.843 Y96.648 E2.3565840000000002
G1 X176.377 Y96.696 E2.368712
G1 X176.898 Y96.822 E2.380832
G1 X177.395 Y97.025 E2.3929760000000004
G1 X177.856 Y97.299 E2.405104
G1 X178.271 Y97.638 E2.417224
G1 X178.631 Y98.036 E2.4293600000000004
G1 X178.928 Y98.482 E2.4414800000000003
G1 X179.156 Y98.968 E2.453624
G1 X179.308 Y99.482 E2.4657440000000004
G1 X179.39 Y100.147 E2.480896
G1 X179.4 Y100.568 E2.4904240000000004
G1 X179.4 Y109.071 E2.6827360000000002
G1 X179.391 Y109.798 E2.699176
G1 X179.344 Y110.332 E2.711304
G1 X179.219 Y110.853 E2.7234160000000003
G1 X179.017 Y111.35 E2.735552
G1 X178.744 Y111.812 E2.747688
G1 X178.406 Y112.228 E2.7598160000000003
G1 X178.009 Y112.589 E2.771952
G1 X177.563 Y112.887 E2.7840800000000003
G1 X177.078 Y113.115 E2.7962000000000002
G1 X176.564 Y113.269 E2.808336
G1 X175.892 Y113.352 E2.8236480000000004
G1 X175.47 Y113.362 E2.8332
G1 X144.701 Y113.362 E3.529096
G1 X143.991 Y113.351 E3.54516
G1 X143.493 Y113.308 E3.556464
G1 X142.878 Y113.212 E3.570536
G1 X141.272 Y112.936 E3.6073920000000004
G1 X138.592 Y112.555 E3.668616
G1 X135.875 Y112.247 E3.730464
G1 X133.146 Y112.014 E3.792408
G1 X130.452 Y111.863 E3.853432
G1 X126.324 Y111.775 E3.946816
G1 X123.691 Y111.775 E4.006368
G1 X120.911 Y111.814 E4.069248000000001
G1 X118.182 Y111.93 E4.131024
G1 X115.453 Y112.124 E4.192904
G1 X112.776 Y112.389 E4.253744
G1 X110.045 Y112.738 E4.316016
G1 X107.133 Y113.212 E4.382744000000001
G1 X106.497 Y113.31 E4.397296
G1 X105.922 Y113.355 E4.410336
G1 X105.358 Y113.362 E4.423096
G1 X74.855 Y113.362 E5.112976
G1 X74.157 Y113.352 E5.128768000000001
G1 X73.623 Y113.304 E5.140896000000001
G1 X73.102 Y113.178 E5.153016000000001
G1 X72.605 Y112.975 E5.16516
G1 X72.144 Y112.701 E5.177288000000001
G1 X71.729 Y112.362 E5.189408
G1 X71.369 Y111.964 E5.201544
G1 X71.072 Y111.518 E5.2136640000000005
G1 X70.844 Y111.032 E5.225808000000001
G1 X70.692 Y110.518 E5.237928
G1 X70.61 Y109.85 E5.253152
G1 X70.6 Y109.42 E5.26288
G1 X70.6 Y100.858 E5.45652
G1 X70.61 Y100.193 E5.471568
G1 X70.658 Y99.659 E5.483688000000001
G1 X70.785 Y99.138 E5.4958160000000005
G1 X70.988 Y98.641 E5.507960000000001
G1 X71.262 Y98.18 E5.520088
G1 X71.602 Y97.765 E5.532224
G1 X72 Y97.406 E5.544344000000001
G0 F3600 X72.385 Y97.618
G1 F1200 X72.822 Y97.364 E5.555776000000001
G1 X73.293 Y97.181 E5.567208000000001
G1 X73.788 Y97.075 E5.5786560000000005
G1 X74.44 Y97.039 E5.593424000000001
G1 X105.293 Y97.038 E6.291224
G1 X106.003 Y97.049 E6.30728
G1 X106.445 Y97.087 E6.3173200000000005
G1 X107.054 Y97.182 E6.331256
G1 X108.67 Y97.46 E6.3683440000000004
G1 X111.344 Y97.84 E6.429424000000001
G1 X114.117 Y98.154 E6.492544
G1 X116.797 Y98.383 E6.553376
G1 X119.547 Y98.537 E6.615672000000001
G1 X123.667 Y98.625 E6.708880000000001
G1 X126.315 Y98.625 E6.768768000000001
G1 X129.112 Y98.585 E6.832032
G1 X131.829 Y98.47 E6.893536000000001
G1 X134.575 Y98.275 E6.955800000000001
G1 X137.281 Y98.007 E7.017296000000001
G1 X139.98 Y97.662 E7.07884
G1 X142.928 Y97.183 E7.1463920000000005
G1 X143.564 Y97.085 E7.160944000000001
G1 X144.083 Y97.045 E7.172712000000001
G1 X144.647 Y97.038 E7.185472000000001
G1 X175.139 Y97.038 E7.875104
G1 X175.837 Y97.048 E7.890896
G1 X176.34 Y97.095 E7.9023200000000005
G1 X176.83 Y97.221 E7.913760000000001
G1 X177.294 Y97.423 E7.925208000000001
G1 X177.72 Y97.695 E7.936640000000001
G1 X178.098 Y98.03 E7.948064
G1 X178.418 Y98.421 E7.959488
G1 X178.673 Y98.858 E7.970936000000001
G1 X178.856 Y99.329 E7.98236
G1 X178.963 Y99.823 E7.993792000000001
G1 X178.999 Y100.478 E8.008632
G1 X179 Y109.066 E8.202864
G1 X178.991 Y109.793 E8.219312
G1 X178.945 Y110.296 E8.230736
G1 X178.82 Y110.786 E8.242168
G1 X178.619 Y111.25 E8.253608
G1 X178.348 Y111.677 E8.265048
G1 X178.013 Y112.056 E8.276488
G1 X177.623 Y112.377 E8.287912
G1 X177.187 Y112.633 E8.299344000000001
G1 X176.716 Y112.816 E8.310776
G1 X176.222 Y112.924 E8.322208000000002
G1 X175.56 Y112.961 E8.337208
G1 X144.707 Y112.962 E9.035
G1 X143.997 Y112.951 E9.051064
G1 X143.555 Y112.913 E9.061096000000001
G1 X142.946 Y112.818 E9.07504
G1 X141.33 Y112.54 E9.11212
G1 X138.656 Y112.16 E9.173208
G1 X135.883 Y111.846 E9.236328
G1 X133.203 Y111.617 E9.29716
G1 X130.453 Y111.463 E9.359456
G1 X126.333 Y111.375 E9.452656000000001
G1 X123.685 Y111.375 E9.512544
G1 X120.888 Y111.415 E9.575816000000001
G1 X118.171 Y111.53 E9.63732
G1 X115.425 Y111.725 E9.699576
G1 X112.719 Y111.993 E9.76108
G1 X110.02 Y112.338 E9.822624000000001
G1 X107.072 Y112.817 E9.890168000000001
G1 X106.436 Y112.915 E9.904720000000001
G1 X105.917 Y112.955 E9.916496
G1 X105.353 Y112.962 E9.929256
G1 X74.861 Y112.962 E10.618888
G1 X74.163 Y112.952 E10.634672000000002
G1 X73.66 Y112.905 E10.646104000000001
G1 X73.17 Y112.779 E10.657544000000001
G1 X72.706 Y112.577 E10.668992000000001
G1 X72.28 Y112.305 E10.680424
G1 X71.902 Y111.97 E10.691848
G1 X71.582 Y111.579 E10.703272
G1 X71.327 Y111.142 E10.714712
G1 X71.144 Y110.671 E10.726144
G1 X71.037 Y110.177 E10.737576
G1 X71.001 Y109.507 E10.752752000000001
G1 X71 Y100.864 E10.948232
G1 X71.01 Y100.199 E10.963272000000002
G1 X71.058 Y99.696 E10.974696000000002
G1 X71.184 Y99.206 E10.986144000000001
G1 X71.386 Y98.742 E10.997584000000002
G1 X71.658 Y98.316 E11.009016
G1 X71.994 Y97.939 E11.02044
G1 X72.385 Y97.618 E11.031880000000001
G1 F2100 E10.39188
;MESH:UM2_Tensile_test_specimen_fine_resolution_cntr_flat_ascii.stl
G0 F3600 X74.814 Y99.573
G0 X74.814 Y100.852
G0 X109.037 Y107.476
G1 F2100 E11.031880000000001
G0 F3600 X109.049 Y107.575
;TYPE:WALL-INNER
G1 F1200 X108.065 Y107.828 E11.054856000000001
G1 X107.155 Y108.204 E11.077128000000002
G1 X106.309 Y108.705 E11.099368
G1 X105.74 Y109.162 E11.115872000000001
G1 X74.8 Y109.162 E11.815640000000002
G1 X74.8 Y100.838 E12.003904
G1 X105.74 Y100.838 E12.703672000000001
G1 X106.309 Y101.295 E12.720176
G1 X107.155 Y101.796 E12.742408000000001
G1 X108.065 Y102.172 E12.76468
G1 X109.049 Y102.425 E12.787656
G1 X140.951 Y102.425 E13.509184
G1 X141.935 Y102.172 E13.53216
G1 X142.845 Y101.796 E13.554432
G1 X143.691 Y101.295 E13.576672
G1 X144.26 Y100.838 E13.593176
G1 X175.2 Y100.838 E14.292944
G1 X175.2 Y109.162 E14.481200000000001
G1 X144.26 Y109.162 E15.180968
G1 X143.691 Y108.705 E15.197479999999999
G1 X142.845 Y108.204 E15.219712000000001
G1 X141.935 Y107.828 E15.241984
G1 X140.951 Y107.575 E15.26496
G1 X109.049 Y107.575 E15.986488000000001
G0 F3600 X109.1 Y107.975
;TYPE:WALL-OUTER
G1 F1200 X108.192 Y108.208 E16.007687999999998
G1 X107.334 Y108.563 E16.028688
G1 X106.537 Y109.035 E16.04964
G1 X105.88 Y109.562 E16.068688
G1 X74.4 Y109.562 E16.780663999999998
G1 X74.4 Y100.438 E16.987024
G1 X105.88 Y100.438 E17.699
G1 X106.537 Y100.965 E17.718048
G1 X107.334 Y101.437 E17.739
G1 X108.192 Y101.792 E17.76
G1 X109.1 Y102.025 E17.781200000000002
G1 X140.9 Y102.025 E18.500424000000002
G1 X141.808 Y101.792 E18.521624
G1 X142.666 Y101.437 E18.542624
G1 X143.463 Y100.965 E18.563576
G1 X144.12 Y100.438 E18.582624000000003
G1 X175.6 Y100.438 E19.294600000000003
G1 X175.6 Y109.562 E19.500960000000003
G1 X144.12 Y109.562 E20.212936
G1 X143.463 Y109.035 E20.231984
G1 X142.666 Y108.563 E20.252936000000002
G1 X141.808 Y108.208 E20.273936000000003
G1 X140.9 Y107.975 E20.295136
G1 X109.1 Y107.975 E21.014352000000002
G0 F3600 X108.907 Y108.024
G0 X109 Y107.185
;TYPE:SKIN
G1 F1200 X107.942 Y107.457 E21.039064
G1 X106.98 Y107.855 E21.062608
G1 X106.087 Y108.383 E21.086072
G1 X105.603 Y108.772 E21.100112
G1 X75.19 Y108.772 E21.78796
G1 X75.19 Y101.228 E21.958584000000002
G1 X105.603 Y101.228 E22.646432
G1 X106.087 Y101.617 E22.660472
G1 X106.98 Y102.145 E22.683936000000003
G1 X107.942 Y102.543 E22.707488
G1 X109 Y102.815 E22.732192
G1 X141 Y102.815 E23.455936
G1 X142.058 Y102.543 E23.48064
G1 X143.02 Y102.145 E23.504184000000002
G1 X143.913 Y101.617 E23.527648
G1 X144.397 Y101.228 E23.541696
G1 X174.81 Y101.228 E24.229536
G1 X174.81 Y108.772 E24.40016
G1 X144.397 Y108.772 E25.088008000000002
G1 X143.913 Y108.383 E25.102056
G1 X143.02 Y107.855 E25.12552
G1 X142.058 Y107.457 E25.149064000000003
G1 X141 Y107.185 E25.173768000000003
G1 X109 Y107.185 E25.897512000000003
G0 F3600 X75.781 Y108.591
G1 F1200 X75.369 Y108.179 E25.910688
G0 F3600 X75.369 Y107.613
G1 F1200 X76.347 Y108.591 E25.941968000000003
G0 F3600 X76.912 Y108.591
G1 F1200 X75.369 Y107.048 E25.99132
G0 F3600 X75.369 Y106.482
G1 F1200 X77.478 Y108.591 E26.058776
G0 F3600 X78.044 Y108.591
G1 F1200 X75.369 Y105.916 E26.144336
G0 F3600 X75.369 Y105.351
G1 F1200 X78.609 Y108.591 E26.247968
G0 F3600 X79.175 Y108.591
G1 F1200 X75.369 Y104.785 E26.369704000000002
G0 F3600 X75.369 Y104.219
G1 F1200 X79.741 Y108.591 E26.509544
G0 F3600 X80.306 Y108.591
G1 F1200 X75.369 Y103.654 E26.667456
G0 F3600 X75.369 Y103.088
G1 F1200 X80.872 Y108.591 E26.843472000000006
G0 F3600 X81.438 Y108.591
G1 F1200 X75.369 Y102.522 E27.037584
G0 F3600 X75.369 Y101.957
G1 F1200 X82.003 Y108.591 E27.249776000000004
G0 F3600 X82.569 Y108.591
G1 F1200 X75.386 Y101.407 E27.479544
G0 F3600 X75.951 Y101.407
G1 F1200 X83.135 Y108.591 E27.709320000000005
G0 F3600 X83.7 Y108.591
G1 F1200 X76.517 Y101.407 E27.939087999999998
G0 F3600 X77.083 Y101.407
G1 F1200 X84.266 Y108.591 E28.168856
G0 F3600 X84.832 Y108.591
G1 F1200 X77.648 Y101.407 E28.398632
G0 F3600 X78.214 Y101.407
G1 F1200 X85.397 Y108.591 E28.6284
G0 F3600 X85.963 Y108.591
G1 F1200 X78.78 Y101.407 E28.858159999999998
G0 F3600 X79.345 Y101.407
G1 F1200 X86.529 Y108.591 E29.087944
G0 F3600 X87.095 Y108.591
G1 F1200 X79.911 Y101.407 E29.317728000000002
G0 F3600 X80.477 Y101.407
G1 F1200 X87.66 Y108.591 E29.547488
G0 F3600 X88.226 Y108.591
G1 F1200 X81.042 Y101.407 E29.777272
G0 F3600 X81.608 Y101.407
G1 F1200 X88.792 Y108.591 E30.007056000000002
G0 F3600 X89.357 Y108.591
G1 F1200 X82.174 Y101.407 E30.236816
G0 F3600 X82.739 Y101.407
G1 F1200 X89.923 Y108.591 E30.4666
G0 F3600 X90.489 Y108.591
G1 F1200 X83.305 Y101.407 E30.696384000000002
G0 F3600 X83.871 Y101.407
G1 F1200 X91.054 Y108.591 E30.926144
G0 F3600 X91.62 Y108.591
G1 F1200 X84.437 Y101.407 E31.155912
G0 F3600 X85.002 Y101.407
G1 F1200 X92.186 Y108.591 E31.385688000000002
G0 F3600 X92.751 Y108.591
G1 F1200 X85.568 Y101.407 E31.615456000000002
G0 F3600 X86.134 Y101.407
G1 F1200 X93.317 Y108.591 E31.845224
G0 F3600 X93.883 Y108.591
G1 F1200 X86.699 Y101.407 E32.075
G0 F3600 X87.265 Y101.407
G1 F1200 X94.448 Y108.591 E32.304768
G0 F3600 X95.014 Y108.591
G1 F1200 X87.831 Y101.407 E32.534536
G0 F3600 X88.396 Y101.407
G1 F1200 X95.58 Y108.591 E32.764312000000004
G0 F3600 X96.146 Y108.591
G1 F1200 X88.962 Y101.407 E32.994096000000006
G0 F3600 X89.528 Y101.407
G1 F1200 X96.711 Y108.591 E33.223856000000005
G0 F3600 X97.277 Y108.591
G1 F1200 X90.093 Y101.407 E33.45364
G0 F3600 X90.66 Y101.408
G1 F1200 X97.843 Y108.591 E33.683392
G0 F3600 X98.408 Y108.591
G1 F1200 X91.225 Y101.408 E33.913136
G0 F3600 X91.791 Y101.408
G1 F1200 X98.974 Y108.591 E34.142888
G0 F3600 X99.54 Y108.591
G1 F1200 X92.357 Y101.408 E34.372640000000004
G0 F3600 X92.923 Y101.408
G1 F1200 X100.105 Y108.591 E34.602368000000006
G0 F3600 X100.671 Y108.591
G1 F1200 X93.488 Y101.408 E34.832119999999996
G0 F3600 X94.054 Y101.408
G1 F1200 X101.237 Y108.591 E35.061872
G0 F3600 X101.802 Y108.591
G1 F1200 X94.62 Y101.408 E35.2916
G0 F3600 X95.185 Y101.408
G1 F1200 X102.368 Y108.591 E35.521352
G0 F3600 X102.934 Y108.591
G1 F1200 X95.751 Y101.408 E35.751096000000004
G0 F3600 X96.317 Y101.408
G1 F1200 X103.499 Y108.591 E35.980832
G0 F3600 X104.065 Y108.591
G1 F1200 X96.882 Y101.408 E36.210584000000004
G0 F3600 X97.448 Y101.408
G1 F1200 X104.631 Y108.591 E36.440328
G0 F3600 X105.196 Y108.591
G1 F1200 X98.014 Y101.408 E36.670064
G0 F3600 X98.579 Y101.408
G1 F1200 X105.663 Y108.492 E36.896648
G0 F3600 X105.976 Y108.239
G1 F1200 X99.145 Y101.408 E37.115136
G0 F3600 X99.711 Y101.408
G1 F1200 X106.33 Y108.027 E37.326848000000005
G0 F3600 X106.686 Y107.817
G1 F1200 X100.276 Y101.408 E37.531856
G0 F3600 X100.842 Y101.408
G1 F1200 X107.06 Y107.625 E37.730720000000005
G0 F3600 X107.46 Y107.46
G1 F1200 X101.408 Y101.408 E37.924296
G0 F3600 X101.973 Y101.408
G1 F1200 X107.861 Y107.295 E38.112608
G0 F3600 X108.307 Y107.176
G1 F1200 X102.539 Y101.408 E38.297096
G0 F3600 X103.105 Y101.408
G1 F1200 X108.757 Y107.06 E38.47788
G0 F3600 X109.267 Y107.004
G1 F1200 X103.671 Y101.408 E38.656864000000006
G0 F3600 X104.236 Y101.408
G1 F1200 X109.832 Y107.004 E38.83585600000001
G0 F3600 X110.398 Y107.004
G1 F1200 X104.802 Y101.408 E39.014848
G0 F3600 X105.368 Y101.408
G1 F1200 X110.964 Y107.004 E39.193832
G0 F3600 X111.529 Y107.004
G1 F1200 X106.735 Y102.21 E39.347168
G1 X106.665 Y102.14
G0 F3600 X107.748 Y102.657
G1 F1200 X112.095 Y107.004 E39.486208000000005
G0 F3600 X112.661 Y107.004
G1 F1200 X108.539 Y102.882 E39.618056
G0 F3600 X109.217 Y102.995
G1 F1200 X113.226 Y107.004 E39.746280000000006
G0 F3600 X113.792 Y107.004
G1 F1200 X109.783 Y102.995 E39.874512
G0 F3600 X110.348 Y102.995
G1 F1200 X114.358 Y107.004 E40.002752
G0 F3600 X114.923 Y107.004
G1 F1200 X110.914 Y102.995 E40.130984000000005
G0 F3600 X111.48 Y102.995
G1 F1200 X115.489 Y107.004 E40.259208
G0 F3600 X116.055 Y107.004
G1 F1200 X112.046 Y102.995 E40.38744
G0 F3600 X112.611 Y102.995
G1 F1200 X116.621 Y107.004 E40.51568
G0 F3600 X117.186 Y107.004
G1 F1200 X113.177 Y102.995 E40.643912
G0 F3600 X113.743 Y102.995
G1 F1200 X117.752 Y107.004 E40.772136
G0 F3600 X118.318 Y107.004
G1 F1200 X114.308 Y102.995 E40.900384
G0 F3600 X114.874 Y102.995
G1 F1200 X118.883 Y107.004 E41.028608000000006
G0 F3600 X119.449 Y107.004
G1 F1200 X115.44 Y102.995 E41.15684
G0 F3600 X116.005 Y102.995
G1 F1200 X120.015 Y107.004 E41.285088
G0 F3600 X120.58 Y107.004
G1 F1200 X116.571 Y102.995 E41.413312000000005
G0 F3600 X117.137 Y102.995
G1 F1200 X121.146 Y107.004 E41.541544
G0 F3600 X121.712 Y107.004
G1 F1200 X117.702 Y102.995 E41.669784
G0 F3600 X118.268 Y102.995
G1 F1200 X122.277 Y107.004 E41.798016000000004
G0 F3600 X122.843 Y107.004
G1 F1200 X118.834 Y102.995 E41.92624000000001
G0 F3600 X119.399 Y102.995
G1 F1200 X123.409 Y107.004 E42.054488
G0 F3600 X123.974 Y107.004
G1 F1200 X119.965 Y102.995 E42.182712
G0 F3600 X120.531 Y102.995
G1 F1200 X124.54 Y107.004 E42.310944000000006
G0 F3600 X125.106 Y107.004
G1 F1200 X121.096 Y102.995 E42.439184000000004
G0 F3600 X121.662 Y102.995
G1 F1200 X125.671 Y107.004 E42.567416
G0 F3600 X126.237 Y107.004
