;FLAVOR:Marlin
;TIME:1331
;Filament used: 0.878554m
;Layer height: 0.2
;MINX:70.6
;MINY:96.638
;MINZ:0.2
;MAXX:179.4
;MAXY:113.362
;MAXZ:6.4
;Generated with Cura_SteamEngine master
M82 ;absolute extrusion mode
G21 ; set units to millimeters
G90 ; use absolute positioning
M82 ; absolute extrusion mode
M104 S200 ; set extruder temp
M140 S60 ; set bed temp
M190 S60 ; wait for bed temp
M109 S200 ; wait for extruder temp
G28 W ; home all without mesh bed level
G80 ; mesh bed leveling
G92 E0.0 ; reset extruder distance position
G1 Y-3.0 F1000.0 ; go outside print area
G1 X60.0 E8.82 F1000.0 ; intro line
G1 X100.0 E21.07 F1000.0 ; intro line
G92 E0.0 ; reset extruder distance position
G92 E0
G92 E0
G1 F2100 E-0.8
;LAYER_COUNT:32
;LAYER:0
M107
G0 F3600 X72 Y97.406 Z0.2
;TYPE:SKIRT
G1 F2100 E0.0
G1 F1200 X72.446 Y97.109 E0.014847
G1 X72.932 Y96.881 E0.0297234
G1 X73.446 Y96.729 E0.044570399999999996
G1 X74.109 Y96.648 E0.0630728
G1 X74.53 Y96.638 E0.07474460000000001
G1 X105.299 Y96.638 E0.9272172
G1 X106.009 Y96.649 E0.9468956
G1 X106.507 Y96.692 E0.960743
G1 X107.122 Y96.788 E0.9779812
G1 X108.728 Y97.064 E1.0231298
G1 X111.408 Y97.445 E1.0981292
G1 X114.125 Y97.753 E1.173893
G1 X116.854 Y97.986 E1.2497744
G1 X119.548 Y98.137 E1.3245288000000002
G1 X123.676 Y98.225 E1.4389242
G1 X126.309 Y98.225 E1.5118753999999999
G1 X129.089 Y98.186 E1.5889034
G1 X131.818 Y98.07 E1.664579
G1 X134.547 Y97.876 E1.740382
G1 X137.224 Y97.611 E1.814911
G1 X139.955 Y97.262 E1.8911942
G1 X142.867 Y96.788 E1.9729359999999998
G1 X143.503 Y96.69 E1.9907622
G1 X144.078 Y96.645 E2.0067361999999997
G1 X144.642 Y96.638 E2.0223671999999997
G1 X175.145 Y96.638 E2.8674702
G1 X175.843 Y96.648 E2.8868154
G1 X176.377 Y96.696 E2.9016722
G1 X176.898 Y96.822 E2.9165191999999998
G1 X177.395 Y97.025 E2.9313956
G1 X177.856 Y97.299 E2.9462524
G1 X178.271 Y97.638 E2.9610993999999997
G1 X178.631 Y98.036 E2.975966
G1 X178.928 Y98.482 E2.9908129999999997
G1 X179.156 Y98.968 E3.0056894
G1 X179.308 Y99.482 E3.0205364
G1 X179.39 Y100.147 E3.0390976
G1 X179.4 Y100.568 E3.0507694
G1 X179.4 Y109.071 E3.2863515999999997
G1 X179.391 Y109.798 E3.3064906
G1 X179.344 Y110.332 E3.3213474
G1 X179.219 Y110.853 E3.3361845999999997
G1 X179.017 Y111.35 E3.3510511999999997
G1 X178.744 Y111.812 E3.3659178
G1 X178.406 Y112.228 E3.3807746
G1 X178.009 Y112.589 E3.3956412
G1 X177.563 Y112.887 E3.410498
G1 X177.078 Y113.115 E3.425345
G1 X176.564 Y113.269 E3.4402115999999996
G1 X175.892 Y113.352 E3.4589688
G1 X175.47 Y113.362 E3.47067
G1 X144.701 Y113.362 E4.3231426
G1 X143.991 Y113.351 E4.342821
G1 X143.493 Y113.308 E4.356668399999999
G1 X142.878 Y113.212 E4.3739066
G1 X141.272 Y112.936 E4.4190552
G1 X138.592 Y112.555 E4.4940546
G1 X135.875 Y112.247 E4.5698184
G1 X133.146 Y112.014 E4.645699799999999
G1 X130.452 Y111.863 E4.7204542
G1 X126.324 Y111.775 E4.834849599999999
G1 X123.691 Y111.775 E4.9078007999999995
G1 X120.911 Y111.814 E4.984828800000001
G1 X118.182 Y111.93 E5.0605044
G1 X115.453 Y112.124 E5.1363074
G1 X112.776 Y112.389 E5.2108364
G1 X110.045 Y112.738 E5.2871196
G1 X107.133 Y113.212 E5.3688614
G1 X106.497 Y113.31 E5.3866876
G1 X105.922 Y113.355 E5.4026616
G1 X105.358 Y113.362 E5.4182926
G1 X74.855 Y113.362 E6.2633956
G1 X74.157 Y113.352 E6.2827408
G1 X73.623 Y113.304 E6.2975976
G1 X73.102 Y113.178 E6.3124446
G1 X72.605 Y112.975 E6.327321
G1 X72.144 Y112.701 E6.3421778
G1 X71.729 Y112.362 E6.3570248000000005
G1 X71.369 Y111.964 E6.3718914
G1 X71.072 Y111.518 E6.3867384
G1 X70.844 Y111.032 E6.4016148
G1 X70.692 Y110.518 E6.4164618
G1 X70.61 Y109.85 E6.4351112
G1 X70.6 Y109.42 E6.4470279999999995
G1 X70.6 Y100.858 E6.6842369999999995
G1 X70.61 Y100.193 E6.7026708
G1 X70.658 Y99.659 E6.7175177999999995
G1 X70.785 Y99.138 E6.7323746
G1 X70.988 Y98.641 E6.747250999999999
G1 X71.262 Y98.18 E6.7621078
G1 X71.602 Y97.765 E6.7769744
G1 X72 Y97.406 E6.7918214
G0 F3600 X72.385 Y97.618
G1 F1200 X72.822 Y97.364 E6.8058256
G1 X73.293 Y97.181 E6.8198298
G1 X73.788 Y97.075 E6.8338536
G1 X74.44 Y97.039 E6.8519444
G1 X105.293 Y97.038 E7.7067494
G1 X106.003 Y97.049 E7.726418
G1 X106.445 Y97.087 E7.738717
G1 X107.054 Y97.182 E7.7557886
G1 X108.67 Y97.46 E7.801221399999999
G1 X111.344 Y97.84 E7.8760444000000005
G1 X114.117 Y98.154 E7.953366399999999
G1 X116.797 Y98.383 E8.0278856
G1 X119.547 Y98.537 E8.1041982
G1 X123.667 Y98.625 E8.218378000000001
G1 X126.315 Y98.625 E8.2917408
G1 X129.112 Y98.585 E8.369239199999999
G1 X131.829 Y98.47 E8.4445816
G1 X134.575 Y98.275 E8.520855000000001
G1 X137.281 Y98.007 E8.5961876
G1 X139.98 Y97.662 E8.671579
G1 X142.928 Y97.183 E8.7543302
G1 X143.564 Y97.085 E8.7721564
G1 X144.083 Y97.045 E8.7865722
G1 X144.647 Y97.038 E8.8022032
G1 X175.139 Y97.038 E9.6470024
G1 X175.837 Y97.048 E9.666347599999998
G1 X176.34 Y97.095 E9.680342
G1 X176.83 Y97.221 E9.694356
G1 X177.294 Y97.423 E9.708379800000001
G1 X177.72 Y97.695 E9.722384
G1 X178.098 Y98.03 E9.7363784
G1 X178.418 Y98.421 E9.750372800000001
G1 X178.673 Y98.858 E9.7643966
G1 X178.856 Y99.329 E9.778391
G1 X178.963 Y99.823 E9.7923952
G1 X178.999 Y100.478 E9.8105742
G1 X179 Y109.066 E10.0485084
G1 X178.991 Y109.793 E10.068657199999999
G1 X178.945 Y110.296 E10.0826516
G1 X178.82 Y110.786 E10.096655799999999
G1 X178.619 Y111.25 E10.1106698
G1 X178.348 Y111.677 E10.1246838
G1 X178.013 Y112.056 E10.138697800000001
G1 X177.623 Y112.377 E10.1526922
G1 X177.187 Y112.633 E10.166696400000001
G1 X176.716 Y112.816 E10.1807006
G1 X176.222 Y112.924 E10.1947048
G1 X175.56 Y112.961 E10.2130798
G1 X144.707 Y112.962 E11.067874999999999
G1 X143.997 Y112.951 E11.0875534
G1 X143.555 Y112.913 E11.0998426
G1 X142.946 Y112.818 E11.116924
G1 X141.33 Y112.54 E11.162347
G1 X138.656 Y112.16 E11.2371798
G1 X135.883 Y111.846 E11.3145018
G1 X133.203 Y111.617 E11.389021
G1 X130.453 Y111.463 E11.4653336
G1 X126.333 Y111.375 E11.5795036
G1 X123.685 Y111.375 E11.652866399999999
G1 X120.888 Y111.415 E11.730374600000001
G1 X118.171 Y111.53 E11.805717
G1 X115.425 Y111.725 E11.8819806
G1 X112.719 Y111.993 E11.957322999999999
G1 X110.02 Y112.338 E12.0327144
G1 X107.072 Y112.817 E12.1154558
G1 X106.436 Y112.915 E12.133282
G1 X105.917 Y112.955 E12.147707599999999
G1 X105.353 Y112.962 E12.1633386
G1 X74.861 Y112.962 E13.0081378
G1 X74.163 Y112.952 E13.027473200000001
G1 X73.66 Y112.905 E13.0414774
G1 X73.17 Y112.779 E13.0554914
G1 X72.706 Y112.577 E13.0695152
G1 X72.28 Y112.305 E13.083519399999998
G1 X71.902 Y111.97 E13.0975138
G1 X71.582 Y111.579 E13.1115082
G1 X71.327 Y111.142 E13.1255222
G1 X71.144 Y110.671 E13.1395264
G1 X71.037 Y110.177 E13.1535306
G1 X71.001 Y109.507 E13.1721212
G1 X71 Y100.864 E13.4115842
G1 X71.01 Y100.199 E13.430008200000001
G1 X71.058 Y99.696 E13.4440026
G1 X71.184 Y99.206 E13.4580264
G1 X71.386 Y98.742 E13.472040400000001
G1 X71.658 Y98.316 E13.4860446
G1 X71.994 Y97.939 E13.500039000000001
G1 X72.385 Y97.618 E13.514052999999999
G1 F2100 E12.730053
;MESH:UM2_Tensile_test_specimen_fine_resolution_cntr_flat_ascii.stl
G0 F3600 X74.814 Y99.573
G0 X74.814 Y100.852
G0 X109.037 Y107.476
G1 F2100 E13.514052999999999
G0 F3600 X109.049 Y107.575
;TYPE:WALL-INNER
G1 F1200 X108.065 Y107.828 E13.542198599999999
G1 X107.155 Y108.204 E13.5694818
G1 X106.309 Y108.705 E13.5967258
G1 X105.74 Y109.162 E13.6169432
G1 X74.8 Y109.162 E14.474159
G1 X74.8 Y100.838 E14.7047824
G1 X105.74 Y100.838 E15.5619982
G1 X106.309 Y101.295 E15.5822156
G1 X107.155 Y101.796 E15.6094498
G1 X108.065 Y102.172 E15.636733
G1 X109.049 Y102.425 E15.6648786
G1 X140.951 Y102.425 E16.5487504
G1 X141.935 Y102.172 E16.576895999999998
G1 X142.845 Y101.796 E16.6041792
G1 X143.691 Y101.295 E16.6314232
G1 X144.26 Y100.838 E16.6516406
G1 X175.2 Y100.838 E17.5088564
G1 X175.2 Y109.162 E17.73947
G1 X144.26 Y109.162 E18.5966858
G1 X143.691 Y108.705 E18.616912999999997
G1 X142.845 Y108.204 E18.644147200000003
G1 X141.935 Y107.828 E18.6714304
G1 X140.951 Y107.575 E18.699576
G1 X109.049 Y107.575 E19.5834478
G0 F3600 X109.1 Y107.975
;TYPE:WALL-OUTER
G1 F1200 X108.192 Y108.208 E19.6094178
G1 X107.334 Y108.563 E19.6351428
G1 X106.537 Y109.035 E19.660809
G1 X105.88 Y109.562 E19.6841428
G1 X74.4 Y109.562 E20.556313399999997
G1 X74.4 Y100.438 E20.8091044
G1 X105.88 Y100.438 E21.681275
G1 X106.537 Y100.965 E21.7046088
G1 X107.334 Y101.437 E21.730275
G1 X108.192 Y101.792 E21.756
G1 X109.1 Y102.025 E21.78197
G1 X140.9 Y102.025 E22.6630194
G1 X141.808 Y101.792 E22.6889894
G1 X142.666 Y101.437 E22.714714400000002
G1 X143.463 Y100.965 E22.7403806
G1 X144.12 Y100.438 E22.7637144
G1 X175.6 Y100.438 E23.635885
G1 X175.6 Y109.562 E23.888676
G1 X144.12 Y109.562 E24.760846599999997
G1 X143.463 Y109.035 E24.7841804
G1 X142.666 Y108.563 E24.8098466
G1 X141.808 Y108.208 E24.8355716
G1 X140.9 Y107.975 E24.8615416
G1 X109.1 Y107.975 E25.7425812
G0 F3600 X108.907 Y108.024
G0 X109 Y107.185
;TYPE:SKIN
G1 F1200 X107.942 Y107.457 E25.7728534
G1 X106.98 Y107.855 E25.8016948
G1 X106.087 Y108.383 E25.830438199999996
G1 X105.603 Y108.772 E25.847637199999998
G1 X75.19 Y108.772 E26.690251
G1 X75.19 Y101.228 E26.899265399999997
G1 X105.603 Y101.228 E27.741879199999996
G1 X106.087 Y101.617 E27.759078199999998
G1 X106.98 Y102.145 E27.7878216
G1 X107.942 Y102.543 E27.8166728
G1 X109 Y102.815 E27.8469352
G1 X141 Y102.815 E28.7335216
G1 X142.058 Y102.543 E28.763783999999998
G1 X143.02 Y102.145 E28.792625400000002
G1 X143.913 Y101.617 E28.8213688
G1 X144.397 Y101.228 E28.838577599999997
G1 X174.81 Y101.228 E29.6811816
G1 X174.81 Y108.772 E29.890196
G1 X144.397 Y108.772 E30.7328098
G1 X143.913 Y108.383 E30.750018599999997
G1 X143.02 Y107.855 E30.778762
G1 X142.058 Y107.457 E30.8076034
G1 X141 Y107.185 E30.8378658
G1 X109 Y107.185 E31.724452199999998
G0 F3600 X75.781 Y108.591
G1 F1200 X75.369 Y108.179 E31.740592799999998
G0 F3600 X75.369 Y107.613
G1 F1200 X76.347 Y108.591 E31.778910800000002
G0 F3600 X76.912 Y108.591
G1 F1200 X75.369 Y107.048 E31.839367000000003
G0 F3600 X75.369 Y106.482
G1 F1200 X77.478 Y108.591 E31.9220006
G0 F3600 X78.044 Y108.591
G1 F1200 X75.369 Y105.916 E32.026811599999995
G0 F3600 X75.369 Y105.351
G1 F1200 X78.609 Y108.591 E32.15376079999999
G0 F3600 X79.175 Y108.591
G1 F1200 X75.369 Y104.785 E32.3028874
G0 F3600 X75.369 Y104.219
G1 F1200 X79.741 Y108.591 E32.4741914
G0 F3600 X80.306 Y108.591
G1 F1200 X75.369 Y103.654 E32.667633599999995
G0 F3600 X75.369 Y103.088
G1 F1200 X80.872 Y108.591 E32.883253200000006
G0 F3600 X81.438 Y108.591
G1 F1200 X75.369 Y102.522 E33.1210404
G0 F3600 X75.369 Y101.957
G1 F1200 X82.003 Y108.591 E33.3809756
G0 F3600 X82.569 Y108.591
G1 F1200 X75.386 Y101.407 E33.6624414
G0 F3600 X75.951 Y101.407
G1 F1200 X83.135 Y108.591 E33.943917
G0 F3600 X83.7 Y108.591
G1 F1200 X76.517 Y101.407 E34.2253828
G0 F3600 X77.083 Y101.407
G1 F1200 X84.266 Y108.591 E34.5068486
G0 F3600 X84.832 Y108.591
G1 F1200 X77.648 Y101.407 E34.7883242
G0 F3600 X78.214 Y101.407
G1 F1200 X85.397 Y108.591 E35.06979
G0 F3600 X85.963 Y108.591
G1 F1200 X78.78 Y101.407 E35.351245999999996
G0 F3600 X79.345 Y101.407
G1 F1200 X86.529 Y108.591 E35.6327314
G0 F3600 X87.095 Y108.591
G1 F1200 X79.911 Y101.407 E35.9142168
G0 F3600 X80.477 Y101.407
G1 F1200 X87.66 Y108.591 E36.1956728
G0 F3600 X88.226 Y108.591
G1 F1200 X81.042 Y101.407 E36.4771582
G0 F3600 X81.608 Y101.407
G1 F1200 X88.792 Y108.591 E36.7586436
G0 F3600 X89.357 Y108.591
G1 F1200 X82.174 Y101.407 E37.0400996
G0 F3600 X82.739 Y101.407
G1 F1200 X89.923 Y108.591 E37.321585
G0 F3600 X90.489 Y108.591
G1 F1200 X83.305 Y101.407 E37.6030704
G0 F3600 X83.871 Y101.407
G1 F1200 X91.054 Y108.591 E37.8845264
G0 F3600 X91.62 Y108.591
G1 F1200 X84.437 Y101.407 E38.1659922
G0 F3600 X85.002 Y101.407
G1 F1200 X92.186 Y108.591 E38.4474678
G0 F3600 X92.751 Y108.591
G1 F1200 X85.568 Y101.407 E38.7289336
G0 F3600 X86.134 Y101.407
G1 F1200 X93.317 Y108.591 E39.010399400000004
G0 F3600 X93.883 Y108.591
G1 F1200 X86.699 Y101.407 E39.291875
G0 F3600 X87.265 Y101.407
G1 F1200 X94.448 Y108.591 E39.573340800000004
G0 F3600 X95.014 Y108.591
G1 F1200 X87.831 Y101.407 E39.8548066
G0 F3600 X88.396 Y101.407
G1 F1200 X95.58 Y108.591 E40.136282200000004
G0 F3600 X96.146 Y108.591
G1 F1200 X88.962 Y101.407 E40.417767600000005
G0 F3600 X89.528 Y101.407
G1 F1200 X96.711 Y108.591 E40.6992236
G0 F3600 X97.277 Y108.591
G1 F1200 X90.093 Y101.407 E40.980709000000004
G0 F3600 X90.66 Y101.408
G1 F1200 X97.843 Y108.591 E41.262155199999995
G0 F3600 X98.408 Y108.591
G1 F1200 X91.225 Y101.408 E41.5435916
G0 F3600 X91.791 Y101.408
G1 F1200 X98.974 Y108.591 E41.8250378
G0 F3600 X99.54 Y108.591
G1 F1200 X92.357 Y101.408 E42.106484
G0 F3600 X92.923 Y101.408
G1 F1200 X100.105 Y108.591 E42.387900800000004
G0 F3600 X100.671 Y108.591
G1 F1200 X93.488 Y101.408 E42.669346999999995
G0 F3600 X94.054 Y101.408
G1 F1200 X101.237 Y108.591 E42.9507932
G0 F3600 X101.802 Y108.591
G1 F1200 X94.62 Y101.408 E43.23221
G0 F3600 X95.185 Y101.408
G1 F1200 X102.368 Y108.591 E43.5136562
G0 F3600 X102.934 Y108.591
G1 F1200 X95.751 Y101.408 E43.795092600000004
G0 F3600 X96.317 Y101.408
G1 F1200 X103.499 Y108.591 E44.0765192
G0 F3600 X104.065 Y108.591
G1 F1200 X96.882 Y101.408 E44.3579654
G0 F3600 X97.448 Y101.408
G1 F1200 X104.631 Y108.591 E44.6394018
G0 F3600 X105.196 Y108.591
G1 F1200 X98.014 Y101.408 E44.920828400000005
G0 F3600 X98.579 Y101.408
G1 F1200 X105.663 Y108.492 E45.1983938
G0 F3600 X105.976 Y108.239
G1 F1200 X99.145 Y101.408 E45.466041600000004
G0 F3600 X99.711 Y101.408
G1 F1200 X106.33 Y108.027 E45.7253888
G0 F3600 X106.686 Y107.817
G1 F1200 X100.276 Y101.408 E45.9765236
G0 F3600 X100.842 Y101.408
G1 F1200 X107.06 Y107.625 E46.220132
G0 F3600 X107.46 Y107.46
G1 F1200 X101.408 Y101.408 E46.4572626
G0 F3600 X101.973 Y101.408
G1 F1200 X107.861 Y107.295 E46.6879448
G0 F3600 X108.307 Y107.176
G1 F1200 X102.539 Y101.408 E46.9139426
G0 F3600 X103.105 Y101.408
G1 F1200 X108.757 Y107.06 E47.135403
G0 F3600 X109.267 Y107.004
G1 F1200 X103.671 Y101.408 E47.3546584
G0 F3600 X104.236 Y101.408
G1 F1200 X109.832 Y107.004 E47.5739236
G0 F3600 X110.398 Y107.004
G1 F1200 X104.802 Y101.408 E47.7931888
G0 F3600 X105.368 Y101.408
G1 F1200 X110.964 Y107.004 E48.0124442
G0 F3600 X111.529 Y107.004
G1 F1200 X106.735 Y102.21 E48.2002808
G1 X106.665 Y102.14
G0 F3600 X107.748 Y102.657
G1 F1200 X112.095 Y107.004 E48.370604799999995
G0 F3600 X112.661 Y107.004
G1 F1200 X108.539 Y102.882 E48.532118600000004
G0 F3600 X109.217 Y102.995
G1 F1200 X113.226 Y107.004 E48.689193
G0 F3600 X113.792 Y107.004
G1 F1200 X109.783 Y102.995 E48.846277199999996
G0 F3600 X110.348 Y102.995
G1 F1200 X114.358 Y107.004 E49.0033712
G0 F3600 X114.923 Y107.004
G1 F1200 X110.914 Y102.995 E49.160455400000004
G0 F3600 X111.48 Y102.995
G1 F1200 X115.489 Y107.004 E49.3175298
G0 F3600 X116.055 Y107.004
G1 F1200 X112.046 Y102.995 E49.474613999999995
G0 F3600 X112.611 Y102.995
G1 F1200 X116.621 Y107.004 E49.631707999999996
G0 F3600 X117.186 Y107.004
G1 F1200 X113.177 Y102.995 E49.788792199999996
G0 F3600 X113.743 Y102.995
G1 F1200 X117.752 Y107.004 E49.9458666
G0 F3600 X118.318 Y107.004
G1 F1200 X114.308 Y102.995 E50.102970400000004
G0 F3600 X114.874 Y102.995
G1 F1200 X118.883 Y107.004 E50.2600448
G0 F3600 X119.449 Y107.004
G1 F1200 X115.44 Y102.995 E50.417128999999996
G0 F3600 X116.005 Y102.995
G1 F1200 X120.015 Y107.004 E50.574232800000004
G0 F3600 X120.58 Y107.004
G1 F1200 X116.571 Y102.995 E50.7313072
G0 F3600 X117.137 Y102.995
G1 F1200 X121.146 Y107.004 E50.888391399999996
G0 F3600 X121.712 Y107.004
G1 F1200 X117.702 Y102.995 E51.0454854
G0 F3600 X118.268 Y102.995
G1 F1200 X122.277 Y107.004 E51.202569600000004
G0 F3600 X122.843 Y107.004
G1 F1200 X118.834 Y102.995 E51.359644
G0 F3600 X119.399 Y102.995
G1 F1200 X123.409 Y107.004 E51.5167478
G0 F3600 X123.974 Y107.004
G1 F1200 X119.965 Y102.995 E51.6738222
G0 F3600 X120.531 Y102.995
G1 F1200 X124.54 Y107.004 E51.830906399999996
G0 F3600 X125.106 Y107.004
G1 F1200 X121.096 Y102.995 E51.9880004
G0 F3600 X121.662 Y102.995
G1 F1200 X125.671 Y107.004 E52.1450846
G0 F3600 X126.237 Y107.004
G1 F1200 X122.228 Y102.995 E52.3021688
G0 F3600 X122.794 Y102.995
G1 F1200 X126.803 Y107.004 E52.459243199999996
G0 F3600 X127.369 Y107.004
